;FLAVOR:Marlin
;TIME:2864
;Filament used: 1.83399m
;Layer height: 0.16
;MINX:86.52
;MINY:89.45
;MINZ:0.2
;MAXX:148.482
;MAXY:145.532
;MAXZ:20
;Generated with Cura_SteamEngine main
M140 S50
M105
M190 S50
M104 S200
M105
M109 S200
M82 ;absolute extrusion mode
; Ender 3 Custom Start G-code
G92 E0 ; Reset Extruder
G28 ; Home all axes
G1 Z2.0 F3000 ; Move Z Axis up little to prevent scratching of Heat Bed
G1 X0.1 Y20 Z0.3 F5000.0 ; Move to start position
G1 X0.1 Y200.0 Z0.3 F1500.0 E15 ; Draw the first line
G1 X0.4 Y200.0 Z0.3 F5000.0 ; Move to side a little
G1 X0.4 Y20 Z0.3 F1500.0 E30 ; Draw the second line
G92 E0 ; Reset Extruder
G1 Z2.0 F3000 ; Move Z Axis up little to prevent scratching of Heat Bed
G1 X5 Y20 Z0.3 F5000.0 ; Move over to prevent blob squish
G92 E0
G92 E0
G1 F2700 E-5
;LAYER_COUNT:101
;LAYER:0
M107
G0 F6000 X100.518 Y93.005 Z0.2
G0 X98.894 Y95.295
;TYPE:SKIRT
G1 F2700 E0
G1 F1200 X99.37 Y94.486 E0.03122
G1 X99.912 Y93.721 E0.0624
G1 X100.518 Y93.005 E0.0936
G1 X101.182 Y92.343 E0.12479
G1 X101.9 Y91.74 E0.15597
G1 X102.668 Y91.201 E0.18718
G1 X103.478 Y90.728 E0.21838
G1 X104.326 Y90.327 E0.24958
G1 X105.204 Y89.999 E0.28075
G1 X106.108 Y89.747 E0.31196
G1 X107.029 Y89.574 E0.34313
G1 X108.267 Y89.465 E0.38447
G1 X108.93 Y89.45 E0.40652
G1 X125.85 Y89.451 E0.96929
G1 X126.551 Y89.461 E0.9926
G1 X127.487 Y89.514 E1.02378
G1 X128.416 Y89.647 E1.055
G1 X129.329 Y89.859 E1.08617
G1 X130.222 Y90.147 E1.11738
G1 X131.086 Y90.511 E1.14856
G1 X131.917 Y90.947 E1.17978
G1 X132.707 Y91.452 E1.21096
G1 X133.451 Y92.022 E1.24213
G1 X134.144 Y92.654 E1.27333
G1 X134.781 Y93.343 E1.30454
G1 X135.357 Y94.083 E1.33573
G1 X135.868 Y94.87 E1.36694
G1 X136.14 Y95.36 E1.38558
G1 X136.681 Y96.394 E1.42439
G1 X137.918 Y98.68 E1.51084
G1 X139.191 Y100.883 E1.59547
G1 X140.517 Y103.033 E1.67948
G1 X141.889 Y105.126 E1.76272
G1 X143.318 Y107.174 E1.84578
G1 X144.806 Y109.184 E1.92896
G1 X145.166 Y109.644 E1.94839
G1 X145.792 Y110.47 E1.98286
G1 X146.522 Y111.563 E2.02657
G1 X146.764 Y111.977 E2.04252
G1 X147.202 Y112.806 E2.07371
G1 X147.595 Y113.742 E2.10747
G1 X147.742 Y114.143 E2.12168
G1 X148.027 Y115.036 E2.15285
G1 X148.293 Y116.303 E2.19591
G1 X148.361 Y116.758 E2.21121
G1 X148.46 Y117.691 E2.24242
G1 X148.482 Y118.384 E2.26548
G1 X148.482 Y118.697 E2.27589
G1 X148.442 Y119.634 E2.30709
G1 X148.383 Y120.173 E2.32512
G1 X148.318 Y120.653 E2.34123
G1 X148.152 Y121.576 E2.37242
G1 X147.772 Y122.887 E2.41782
G1 X147.662 Y123.194 E2.42867
G1 X147.309 Y124.063 E2.45986
G1 X147.091 Y124.511 E2.47643
G1 X146.868 Y124.945 E2.49266
G1 X146.404 Y125.76 E2.52386
G1 X145.676 Y126.786 E2.5657
G1 X145.417 Y127.11 E2.57949
G1 X145.03 Y127.569 E2.59946
G1 X144.137 Y128.569 E2.64405
G1 X142.499 Y130.457 E2.72719
G1 X140.902 Y132.407 E2.81102
G1 X139.029 Y134.827 E2.9128
G1 X137.866 Y136.24 E2.97367
G1 X137.423 Y136.75 E2.99614
G1 X136.768 Y137.44 E3.02778
G1 X136.022 Y138.158 E3.06222
G1 X135.245 Y138.876 E3.09741
G1 X134.477 Y139.524 E3.13083
G1 X133.858 Y139.999 E3.15678
G1 X132.769 Y140.796 E3.20166
G1 X131.936 Y141.347 E3.23488
G1 X131.089 Y141.85 E3.26765
G1 X130.142 Y142.387 E3.30386
G1 X129.204 Y142.861 E3.33881
G1 X128.179 Y143.319 E3.37615
G1 X127.25 Y143.71 E3.40967
G1 X126.345 Y144.043 E3.44175
G1 X125.418 Y144.335 E3.47407
G1 X124.365 Y144.644 E3.51057
G1 X123.396 Y144.881 E3.54375
G1 X122.333 Y145.087 E3.57977
G1 X121.302 Y145.263 E3.61455
G1 X120.311 Y145.386 E3.64777
G1 X119.245 Y145.467 E3.68332
G1 X118.214 Y145.523 E3.71767
G1 X117.222 Y145.532 E3.75066
G1 X116.169 Y145.491 E3.78571
G1 X115.102 Y145.426 E3.82127
G1 X114.053 Y145.311 E3.85636
G1 X112.889 Y145.127 E3.89556
G1 X111.978 Y144.963 E3.92635
G1 X111.063 Y144.755 E3.95756
G1 X110.019 Y144.466 E3.99359
G1 X109.034 Y144.17 E4.02779
G1 X108.103 Y143.844 E4.0606
G1 X107.333 Y143.535 E4.0882
G1 X106.128 Y143.018 E4.13181
G1 X105.246 Y142.59 E4.16442
G1 X104.56 Y142.218 E4.19037
G1 X103.406 Y141.558 E4.23459
G1 X102.524 Y140.994 E4.26941
G1 X101.348 Y140.156 E4.31744
G1 X100.808 Y139.752 E4.33987
G1 X100.083 Y139.159 E4.37102
G1 X99.295 Y138.453 E4.40621
G1 X98.508 Y137.716 E4.44207
G1 X97.817 Y137.008 E4.47498
G1 X97.348 Y136.482 E4.49842
G1 X96.449 Y135.43 E4.54444
G1 X95.993 Y134.858 E4.56877
G1 X94.223 Y132.551 E4.66548
G1 X92.668 Y130.644 E4.74732
G1 X90.982 Y128.693 E4.83309
G1 X90.175 Y127.803 E4.87305
G1 X89.776 Y127.343 E4.8933
G1 X89.294 Y126.746 E4.91882
G1 X89.103 Y126.492 E4.92939
G1 X88.572 Y125.719 E4.96058
G1 X88.23 Y125.133 E4.98315
G1 X88.086 Y124.868 E4.99318
G1 X87.674 Y124.026 E5.02436
G1 X87.467 Y123.519 E5.04257
G1 X87.297 Y123.071 E5.05851
G1 X87.001 Y122.18 E5.08974
G1 X86.783 Y121.268 E5.12092
G1 X86.648 Y120.434 E5.14902
G1 X86.549 Y119.502 E5.1802
G1 X86.529 Y119.021 E5.19621
G1 X86.52 Y118.558 E5.21161
G1 X86.542 Y117.62 E5.24282
G1 X86.695 Y116.381 E5.28434
G1 X86.775 Y115.94 E5.29925
G1 X86.981 Y115.025 E5.33044
G1 X87.185 Y114.356 E5.3537
G1 X87.294 Y114.036 E5.36495
G1 X87.634 Y113.162 E5.39614
G1 X87.999 Y112.411 E5.42391
G1 X88.17 Y112.09 E5.43601
G1 X88.645 Y111.282 E5.46718
G1 X89.069 Y110.674 E5.49184
G1 X89.935 Y109.516 E5.53993
G1 X90.3 Y109.045 E5.55975
G1 X91.789 Y107.025 E5.64322
G1 X93.232 Y104.948 E5.72733
G1 X94.613 Y102.835 E5.81129
G1 X95.934 Y100.682 E5.8953
G1 X97.17 Y98.537 E5.97764
G1 X98.894 Y95.295 E6.09977
G1 F2700 E1.09977
G0 F6000 X96.272 Y100.896
G1 F2700 E6.09977
G1 F1200 X97.517 Y98.735 E6.18272
G1 X99.247 Y95.482 E6.30527
G1 X99.715 Y94.689 E6.33589
G1 X100.249 Y93.939 E6.36651
G1 X100.846 Y93.239 E6.39711
G1 X101.502 Y92.593 E6.42773
G1 X102.211 Y92.006 E6.45835
G1 X102.969 Y91.483 E6.48898
G1 X103.769 Y91.028 E6.51959
G1 X104.606 Y90.644 E6.55022
G1 X105.473 Y90.334 E6.58084
G1 X106.363 Y90.1 E6.61145
G1 X107.271 Y89.944 E6.64209
G1 X108.279 Y89.865 E6.67572
G1 X108.93 Y89.85 E6.69738
G1 X125.693 Y89.85 E7.25492
G1 X126.545 Y89.861 E7.28326
G1 X127.464 Y89.914 E7.31388
G1 X128.375 Y90.047 E7.3445
G1 X129.271 Y90.258 E7.37511
G1 X130.146 Y90.546 E7.40575
G1 X130.992 Y90.909 E7.43637
G1 X131.803 Y91.344 E7.46698
G1 X132.574 Y91.848 E7.49762
G1 X133.298 Y92.417 E7.52824
G1 X133.97 Y93.046 E7.55886
G1 X134.585 Y93.731 E7.58948
G1 X135.138 Y94.467 E7.6201
G1 X135.786 Y95.546 E7.66196
G1 X136.332 Y96.589 E7.70111
G1 X137.575 Y98.887 E7.78801
G1 X138.846 Y101.087 E7.87252
G1 X140.158 Y103.214 E7.95564
G1 X141.559 Y105.351 E8.04063
G1 X142.996 Y107.411 E8.12417
G1 X144.499 Y109.441 E8.20818
G1 X144.72 Y109.721 E8.22004
G1 X145.473 Y110.712 E8.26144
G1 X146.176 Y111.765 E8.30355
G1 X146.418 Y112.179 E8.3195
G1 X146.848 Y112.993 E8.35012
G1 X147.219 Y113.88 E8.38209
G1 X147.366 Y114.281 E8.3963
G1 X147.645 Y115.158 E8.42691
G1 X147.898 Y116.362 E8.46783
G1 X147.966 Y116.817 E8.48313
G1 X148.062 Y117.733 E8.51376
G1 X148.082 Y118.384 E8.53543
G1 X148.082 Y118.697 E8.54584
G1 X148.042 Y119.617 E8.57647
G1 X147.986 Y120.119 E8.59327
G1 X147.921 Y120.599 E8.60938
G1 X147.758 Y121.506 E8.64003
G1 X147.396 Y122.752 E8.68318
G1 X147.286 Y123.059 E8.69403
G1 X146.938 Y123.912 E8.72467
G1 X146.512 Y124.762 E8.75629
G1 X146.056 Y125.562 E8.78692
G1 X145.364 Y126.537 E8.82669
G1 X145.105 Y126.861 E8.84048
G1 X144.731 Y127.302 E8.85971
G1 X143.902 Y128.231 E8.90113
G1 X142.189 Y130.204 E8.98803
G1 X140.574 Y132.176 E9.07281
G1 X138.506 Y134.84 E9.18498
G1 X137.564 Y135.977 E9.23409
G1 X137.121 Y136.487 E9.25655
G1 X136.49 Y137.153 E9.28707
G1 X135.929 Y137.696 E9.31304
G1 X134.974 Y138.582 E9.35637
G1 X134.233 Y139.206 E9.38859
G1 X133.402 Y139.84 E9.42335
G1 X132.533 Y140.473 E9.45911
G1 X131.731 Y141.003 E9.49108
G1 X130.892 Y141.502 E9.52355
G1 X129.945 Y142.039 E9.55976
G1 X129.04 Y142.496 E9.59348
G1 X128.015 Y142.954 E9.63082
G1 X127.096 Y143.341 E9.66398
G1 X126.224 Y143.662 E9.69489
G1 X125.536 Y143.881 E9.7189
G1 X124.253 Y144.26 E9.7634
G1 X123.319 Y144.489 E9.79539
G1 X122.266 Y144.693 E9.83106
G1 X121.235 Y144.869 E9.86585
G1 X120.28 Y144.988 E9.89786
G1 X119.477 Y145.051 E9.92465
G1 X118.192 Y145.123 E9.96745
G1 X117.236 Y145.132 E9.99925
G1 X116.193 Y145.091 E10.03397
G1 X115.126 Y145.026 E10.06952
G1 X114.116 Y144.916 E10.10331
G1 X112.952 Y144.732 E10.14251
G1 X112.051 Y144.57 E10.17296
G1 X111.168 Y144.369 E10.20308
G1 X110.134 Y144.083 E10.23876
G1 X109.149 Y143.787 E10.27297
G1 X108.252 Y143.472 E10.30459
G1 X107.227 Y143.057 E10.34137
G1 X106.287 Y142.651 E10.37542
G1 X105.437 Y142.238 E10.40686
G1 X104.522 Y141.738 E10.44154
G1 X103.605 Y141.211 E10.47671
G1 X102.755 Y140.667 E10.51028
G1 X101.588 Y139.836 E10.55793
G1 X101.048 Y139.432 E10.58036
G1 X100.349 Y138.861 E10.61038
G1 X99.568 Y138.161 E10.64526
G1 X98.781 Y137.424 E10.68112
G1 X98.115 Y136.741 E10.71285
G1 X97.488 Y136.034 E10.74428
G1 X96.753 Y135.171 E10.78198
G1 X96.314 Y134.619 E10.80544
G1 X94.534 Y132.299 E10.9027
G1 X92.965 Y130.375 E10.98527
G1 X91.297 Y128.445 E11.07012
G1 X90.647 Y127.731 E11.10223
G1 X90.079 Y127.081 E11.13094
G1 X89.614 Y126.506 E11.15554
G1 X89.423 Y126.252 E11.16611
G1 X88.902 Y125.493 E11.19673
G1 X88.581 Y124.942 E11.21794
G1 X88.437 Y124.677 E11.22797
G1 X88.033 Y123.85 E11.25858
G1 X87.841 Y123.377 E11.27556
G1 X87.671 Y122.929 E11.2915
G1 X87.382 Y122.055 E11.32211
G1 X87.098 Y120.736 E11.36699
G1 X87.044 Y120.375 E11.37913
G1 X86.929 Y119.013 E11.42459
G1 X86.92 Y118.55 E11.43999
G1 X86.942 Y117.63 E11.4706
G1 X87.088 Y116.452 E11.51008
G1 X87.168 Y116.011 E11.52499
G1 X87.372 Y115.113 E11.55562
G1 X87.564 Y114.485 E11.57746
G1 X87.673 Y114.165 E11.5887
G1 X88.008 Y113.307 E11.61934
G1 X88.352 Y112.599 E11.64552
G1 X88.523 Y112.278 E11.65762
G1 X88.99 Y111.485 E11.68823
G1 X89.389 Y110.914 E11.71139
G1 X90.255 Y109.756 E11.75949
G1 X90.634 Y109.267 E11.78007
G1 X92.124 Y107.245 E11.86361
G1 X93.552 Y105.19 E11.94684
G1 X94.946 Y103.058 E12.03156
G1 X96.272 Y100.896 E12.11592
G1 F2700 E7.11592
G0 F6000 X93.899 Y105.39
G1 F2700 E12.11592
G1 F1200 X95.279 Y103.28 E12.19977
G1 X96.617 Y101.099 E12.28487
G1 X97.879 Y98.908 E12.36897
G1 X99.601 Y95.67 E12.49095
G1 X100.059 Y94.893 E12.52095
G1 X100.585 Y94.158 E12.55101
G1 X101.174 Y93.474 E12.58103
G1 X101.821 Y92.844 E12.61107
G1 X102.522 Y92.273 E12.64114
G1 X103.27 Y91.767 E12.67118
G1 X104.059 Y91.329 E12.70119
G1 X104.885 Y90.963 E12.73124
G1 X105.74 Y90.671 E12.76129
G1 X106.617 Y90.456 E12.79132
G1 X107.509 Y90.319 E12.82134
G1 X108.291 Y90.265 E12.84741
G1 X108.93 Y90.25 E12.86867
G1 X125.693 Y90.25 E13.42621
G1 X126.539 Y90.261 E13.45435
G1 X127.441 Y90.314 E13.4844
G1 X128.334 Y90.446 E13.51443
G1 X129.213 Y90.657 E13.54449
G1 X130.069 Y90.945 E13.57453
G1 X130.896 Y91.307 E13.60456
G1 X131.688 Y91.741 E13.63459
G1 X132.438 Y92.244 E13.66463
G1 X133.141 Y92.811 E13.69467
G1 X133.791 Y93.437 E13.72468
G1 X134.384 Y94.119 E13.75474
G1 X134.913 Y94.851 E13.78478
G1 X135.432 Y95.731 E13.81876
G1 X136.015 Y96.844 E13.86055
G1 X137.221 Y99.075 E13.9449
G1 X138.494 Y101.276 E14.02947
G1 X139.833 Y103.447 E14.11431
G1 X141.224 Y105.57 E14.19873
G1 X142.679 Y107.656 E14.28332
G1 X144.175 Y109.676 E14.36692
G1 X144.528 Y110.127 E14.38597
G1 X145.154 Y110.953 E14.42044
G1 X145.831 Y111.967 E14.46099
G1 X146.073 Y112.381 E14.47694
G1 X146.494 Y113.18 E14.50698
G1 X146.844 Y114.017 E14.53715
G1 X146.991 Y114.418 E14.55136
G1 X147.264 Y115.279 E14.5814
G1 X147.502 Y116.421 E14.6202
G1 X147.57 Y116.876 E14.6355
G1 X147.664 Y117.775 E14.66557
G1 X147.682 Y118.384 E14.68583
G1 X147.682 Y118.697 E14.69624
G1 X147.642 Y119.599 E14.72627
G1 X147.59 Y120.066 E14.7419
G1 X147.525 Y120.546 E14.75801
G1 X147.364 Y121.434 E14.78803
G1 X147.019 Y122.618 E14.82904
G1 X146.909 Y122.925 E14.83989
G1 X146.379 Y124.146 E14.88416
G1 X146.156 Y124.58 E14.90039
G1 X145.709 Y125.364 E14.93041
G1 X145.051 Y126.287 E14.96811
G1 X144.792 Y126.611 E14.98191
G1 X144.433 Y127.036 E15.00041
G1 X143.587 Y127.983 E15.04264
G1 X141.876 Y129.955 E15.12948
G1 X140.267 Y131.919 E15.21393
G1 X138.197 Y134.586 E15.32621
G1 X137.262 Y135.715 E15.37497
G1 X136.819 Y136.225 E15.39744
G1 X136.212 Y136.865 E15.42678
G1 X135.651 Y137.408 E15.45274
G1 X134.702 Y138.288 E15.49579
G1 X133.99 Y138.889 E15.52678
G1 X133.167 Y139.517 E15.56121
G1 X132.298 Y140.15 E15.59697
G1 X131.526 Y140.66 E15.62774
G1 X130.694 Y141.154 E15.65993
G1 X129.747 Y141.691 E15.69614
G1 X128.877 Y142.131 E15.72856
G1 X127.852 Y142.589 E15.7659
G1 X126.942 Y142.972 E15.79874
G1 X126.103 Y143.28 E15.82847
G1 X125.193 Y143.567 E15.8602
G1 X124.14 Y143.876 E15.8967
G1 X123.241 Y144.096 E15.92749
G1 X122.198 Y144.299 E15.96283
G1 X121.167 Y144.475 E15.99761
G1 X120.249 Y144.589 E16.02838
G1 X119.446 Y144.652 E16.05517
G1 X118.17 Y144.724 E16.09768
G1 X117.251 Y144.732 E16.12825
G1 X116.218 Y144.692 E16.16263
G1 X115.151 Y144.627 E16.19818
G1 X114.178 Y144.521 E16.23074
G1 X113.014 Y144.337 E16.26993
G1 X112.123 Y144.176 E16.30005
G1 X111.274 Y143.983 E16.32901
G1 X110.495 Y143.77 E16.35587
G1 X109.265 Y143.403 E16.39856
G1 X108.401 Y143.101 E16.429
G1 X107.386 Y142.69 E16.46542
G1 X106.446 Y142.284 E16.49948
G1 X105.628 Y141.886 E16.52973
G1 X104.722 Y141.392 E16.56406
G1 X103.805 Y140.865 E16.59923
G1 X102.987 Y140.341 E16.63154
G1 X102.038 Y139.668 E16.67024
G1 X101.288 Y139.111 E16.70131
G1 X100.615 Y138.562 E16.7302
G1 X100.031 Y138.042 E16.75621
G1 X99.055 Y137.132 E16.80059
G1 X98.414 Y136.475 E16.83112
G1 X97.793 Y135.775 E16.86224
G1 X97.058 Y134.912 E16.89995
G1 X96.635 Y134.381 E16.92253
G1 X94.845 Y132.048 E17.02033
G1 X93.279 Y130.126 E17.10279
G1 X91.592 Y128.175 E17.18857
G1 X90.943 Y127.462 E17.22064
G1 X90.381 Y126.818 E17.24907
G1 X89.934 Y126.265 E17.27272
G1 X89.743 Y126.011 E17.28329
G1 X89.232 Y125.266 E17.31334
G1 X88.933 Y124.751 E17.33314
G1 X88.789 Y124.486 E17.34317
G1 X88.393 Y123.674 E17.37322
G1 X88.215 Y123.235 E17.38898
G1 X88.045 Y122.787 E17.40492
G1 X87.762 Y121.929 E17.43496
G1 X87.493 Y120.677 E17.47756
G1 X87.439 Y120.316 E17.4897
G1 X87.329 Y119.005 E17.53345
G1 X87.32 Y118.542 E17.54886
G1 X87.342 Y117.639 E17.5789
G1 X87.482 Y116.523 E17.61631
G1 X87.562 Y116.082 E17.63122
G1 X87.762 Y115.202 E17.66123
G1 X87.943 Y114.614 E17.68169
G1 X88.052 Y114.294 E17.69294
G1 X88.381 Y113.453 E17.72297
G1 X88.705 Y112.787 E17.74761
G1 X88.876 Y112.466 E17.7597
G1 X89.335 Y111.689 E17.78972
G1 X89.71 Y111.153 E17.81148
G1 X90.576 Y109.995 E17.85957
G1 X90.943 Y109.522 E17.87948
G1 X92.442 Y107.488 E17.96352
G1 X93.899 Y105.39 E18.04848
G1 F2700 E13.04848
G0 F6000 X107.947 Y99.797
G0 X127.053 Y99.797
G0 X135.68 Y117.695
G0 X135.383 Y118.55
G1 F2700 E18.04848
G1 F1200 X135.532 Y118.262 E18.05926
G1 X135.649 Y117.95 E18.07035
G1 X135.68 Y117.695 E18.07889
G1 X135.919 Y117.959 E18.09073
G1 X136.049 Y118.242 E18.10109
G1 X136.091 Y118.491 E18.10949
G1 X136.062 Y118.838 E18.12107
G1 X135.938 Y119.117 E18.13123
G1 X135.702 Y119.384 E18.14308
G1 X135.604 Y118.976 E18.15704
G1 X135.383 Y118.55 E18.173
G0 F6000 X134.968 Y118.483
G1 F1200 X135.177 Y118.079 E18.18813
G1 X135.27 Y117.812 E18.19753
G1 X135.281 Y117.494 E18.20811
G1 X135.229 Y117.079 E18.22202
G1 X135.585 Y117.157 E18.23415
G1 X136.021 Y117.439 E18.25142
G1 X136.337 Y117.844 E18.2685
G1 X136.438 Y118.142 E18.27897
G1 X136.509 Y118.559 E18.29304
G1 X136.452 Y118.936 E18.30572
G1 X136.273 Y119.338 E18.32035
G1 X136.091 Y119.573 E18.33024
G1 X135.848 Y119.799 E18.34128
G1 X135.426 Y119.99 E18.35668
G1 X135.227 Y120.032 E18.36345
G1 X135.283 Y119.585 E18.37843
G1 X135.278 Y119.303 E18.38781
G1 X135.159 Y118.964 E18.39976
G1 X134.969 Y118.632 E18.41248
G1 X134.968 Y118.483 E18.41744
G0 F6000 X134.555 Y118.533
G1 F1200 X134.596 Y118.332 E18.42426
G1 X134.822 Y117.895 E18.44063
G1 X134.897 Y117.647 E18.44924
G1 X134.77 Y116.636 E18.48313
G1 X135.345 Y116.688 E18.50234
G1 X135.603 Y116.753 E18.51119
G1 X135.893 Y116.88 E18.52172
G1 X136.18 Y117.065 E18.53307
G1 X136.392 Y117.265 E18.54277
G1 X136.589 Y117.517 E18.55341
G1 X136.739 Y117.786 E18.56365
G1 X136.827 Y118.041 E18.57262
G1 X136.891 Y118.423 E18.5855
G1 X136.891 Y118.709 E18.59502
G1 X136.842 Y119.032 E18.60588
G1 X136.74 Y119.316 E18.61592
G1 X136.611 Y119.554 E18.62492
