;FLAVOR:Marlin
;TIME:3400
;Filament used: 2.55588m
;Layer height: 0.16
;MINX:85.122
;MINY:89.05
;MINZ:0.2
;MAXX:149.877
;MAXY:145.927
;MAXZ:22
;Generated with Cura_SteamEngine main
M140 S50
M105
M190 S50
M104 S215
M105
M109 S215
M82 ;absolute extrusion mode
; Ender 3 Custom Start G-code
G92 E0 ; Reset Extruder
G28 ; Home all axes
G1 Z2.0 F3000 ; Move Z Axis up little to prevent scratching of Heat Bed
G1 X0.1 Y20 Z0.3 F5000.0 ; Move to start position
G1 X0.1 Y200.0 Z0.3 F1500.0 E15 ; Draw the first line
G1 X0.4 Y200.0 Z0.3 F5000.0 ; Move to side a little
G1 X0.4 Y20 Z0.3 F1500.0 E30 ; Draw the second line
G92 E0 ; Reset Extruder
G1 Z2.0 F3000 ; Move Z Axis up little to prevent scratching of Heat Bed
G1 X5 Y20 Z0.3 F5000.0 ; Move over to prevent blob squish
G92 E0
G92 E0
G1 F2700 E-5
;LAYER_COUNT:111
;LAYER:0
M107
G0 F6000 X99.95 Y93.044 Z0.2
G0 X98.835 Y94.591
;TYPE:SKIRT
G1 F2700 E0
G1 F1200 X99.36 Y93.794 E0.03174
G1 X99.95 Y93.044 E0.06348
G1 X100.601 Y92.345 E0.09525
G1 X101.308 Y91.703 E0.12701
G1 X102.067 Y91.123 E0.15879
G1 X102.871 Y90.609 E0.19052
G1 X103.715 Y90.163 E0.22227
G1 X104.594 Y89.789 E0.25405
G1 X105.501 Y89.491 E0.2858
G1 X106.429 Y89.269 E0.31754
G1 X107.373 Y89.126 E0.34929
G1 X108.289 Y89.063 E0.37983
G1 X108.93 Y89.05 E0.40115
G1 X125.856 Y89.051 E0.96412
G1 X126.557 Y89.061 E0.98743
G1 X127.51 Y89.115 E1.01918
G1 X128.455 Y89.248 E1.05092
G1 X129.386 Y89.46 E1.08268
G1 X130.296 Y89.749 E1.11444
G1 X131.179 Y90.113 E1.1462
G1 X132.028 Y90.549 E1.17795
G1 X132.838 Y91.056 E1.20973
G1 X133.602 Y91.628 E1.24147
G1 X134.316 Y92.262 E1.27323
G1 X134.974 Y92.954 E1.30499
G1 X135.572 Y93.698 E1.33674
G1 X136.178 Y94.609 E1.37313
G1 X136.657 Y95.41 E1.40417
G1 X136.999 Y96.001 E1.42688
G1 X138.32 Y98.149 E1.51075
G1 X139.699 Y100.258 E1.59456
G1 X141.119 Y102.298 E1.67723
G1 X142.614 Y104.322 E1.76093
G1 X144.158 Y106.293 E1.8442
G1 X146.153 Y108.686 E1.94782
G1 X146.826 Y109.524 E1.98357
G1 X147.391 Y110.294 E2.01534
G1 X147.927 Y111.178 E2.04972
G1 X148.186 Y111.652 E2.06769
G1 X148.608 Y112.508 E2.09943
G1 X148.948 Y113.37 E2.13025
G1 X149.105 Y113.821 E2.14613
G1 X149.381 Y114.735 E2.17789
G1 X149.537 Y115.435 E2.20174
G1 X149.675 Y116.159 E2.22625
G1 X149.815 Y117.103 E2.258
G1 X149.877 Y118.293 E2.29763
G1 X149.877 Y118.874 E2.31695
G1 X149.837 Y119.828 E2.34871
G1 X149.706 Y120.843 E2.38275
G1 X149.612 Y121.379 E2.40085
G1 X149.407 Y122.312 E2.43262
G1 X149.134 Y123.203 E2.46362
G1 X148.989 Y123.614 E2.47811
G1 X148.491 Y124.805 E2.52105
G1 X148.175 Y125.455 E2.54509
G1 X147.722 Y126.296 E2.57686
G1 X147.2 Y127.095 E2.6086
G1 X146.89 Y127.51 E2.62583
G1 X146.62 Y127.854 E2.64038
G1 X145.999 Y128.579 E2.67213
G1 X145.532 Y129.053 E2.69426
G1 X144.332 Y130.198 E2.74942
G1 X143.704 Y130.775 E2.77779
G1 X141.919 Y132.513 E2.86065
G1 X140.204 Y134.276 E2.94246
G1 X138.339 Y136.334 E3.03483
G1 X138.119 Y136.557 E3.04525
G1 X137.458 Y137.297 E3.07825
G1 X136.782 Y137.992 E3.1105
G1 X135.999 Y138.726 E3.14619
G1 X135.218 Y139.426 E3.18108
G1 X134.401 Y140.093 E3.21616
G1 X133.282 Y140.919 E3.26242
G1 X132.695 Y141.332 E3.28629
G1 X131.826 Y141.886 E3.32056
G1 X130.873 Y142.435 E3.35714
G1 X130.018 Y142.905 E3.3896
G1 X129.08 Y143.363 E3.42431
G1 X128.035 Y143.815 E3.46218
G1 X127.146 Y144.178 E3.49412
G1 X126.177 Y144.521 E3.52831
G1 X125.106 Y144.846 E3.56554
G1 X124.144 Y145.115 E3.59876
G1 X123.242 Y145.325 E3.62956
G1 X122.579 Y145.451 E3.65201
G1 X121.161 Y145.686 E3.69981
G1 X120.143 Y145.806 E3.73391
G1 X119.393 Y145.86 E3.75892
G1 X118.041 Y145.927 E3.80394
G1 X116.96 Y145.927 E3.83989
G1 X115.592 Y145.859 E3.88545
G1 X114.892 Y145.809 E3.90879
G1 X113.943 Y145.701 E3.94056
G1 X112.933 Y145.54 E3.97458
G1 X111.888 Y145.351 E4.0099
G1 X110.872 Y145.119 E4.04456
G1 X109.852 Y144.833 E4.07979
G1 X108.834 Y144.524 E4.11518
G1 X107.885 Y144.189 E4.14865
G1 X107.18 Y143.905 E4.17393
G1 X105.941 Y143.372 E4.21879
G1 X104.981 Y142.902 E4.25434
G1 X104.026 Y142.377 E4.29059
G1 X103.132 Y141.86 E4.32494
G1 X102.313 Y141.335 E4.35729
G1 X101.676 Y140.887 E4.38319
G1 X100.623 Y140.112 E4.42668
G1 X99.823 Y139.462 E4.46096
G1 X99.04 Y138.762 E4.4959
G1 X98.278 Y138.052 E4.53054
G1 X97.547 Y137.305 E4.5653
G1 X96.708 Y136.366 E4.60718
G1 X96.607 Y136.263 E4.61198
G1 X95.522 Y135.054 E4.66601
G1 X93.789 Y133.229 E4.74972
G1 X92.014 Y131.464 E4.83297
G1 X89.669 Y129.259 E4.94003
G1 X88.718 Y128.249 E4.98617
G1 X88.329 Y127.782 E5.00639
G1 X87.749 Y127.024 E5.03813
G1 X87.235 Y126.219 E5.0699
G1 X86.974 Y125.746 E5.08787
G1 X86.754 Y125.323 E5.10373
G1 X86.229 Y124.158 E5.14623
G1 X85.963 Y123.467 E5.17085
G1 X85.658 Y122.563 E5.20259
G1 X85.429 Y121.636 E5.23434
G1 X85.318 Y120.993 E5.25605
G1 X85.238 Y120.436 E5.27476
G1 X85.142 Y119.486 E5.30652
G1 X85.122 Y118.815 E5.32885
G1 X85.122 Y118.308 E5.34571
G1 X85.162 Y117.354 E5.37747
G1 X85.278 Y116.431 E5.40841
G1 X85.374 Y115.856 E5.4278
G1 X85.57 Y114.921 E5.45957
G1 X85.743 Y114.314 E5.48057
G1 X85.92 Y113.751 E5.5002
G1 X86.244 Y112.853 E5.53195
G1 X86.761 Y111.759 E5.57219
G1 X87.07 Y111.186 E5.59385
G1 X87.558 Y110.365 E5.62561
G1 X88.176 Y109.508 E5.66075
G1 X88.738 Y108.809 E5.69059
G1 X89.655 Y107.723 E5.73786
G1 X91.288 Y105.728 E5.82361
G1 X92.819 Y103.742 E5.90701
G1 X94.294 Y101.715 E5.99039
G1 X95.707 Y99.65 E6.07361
G1 X97.05 Y97.564 E6.15613
G1 X98.835 Y94.591 E6.27147
G1 F2700 E1.27147
G0 F6000 X96.03 Y99.887
G1 F2700 E6.27147
G1 F1200 X97.401 Y97.757 E6.35572
G1 X99.178 Y94.797 E6.47054
G1 X99.694 Y94.015 E6.50171
G1 X100.276 Y93.279 E6.53291
G1 X100.918 Y92.595 E6.56412
G1 X101.616 Y91.968 E6.59532
G1 X102.364 Y91.403 E6.6265
G1 X103.158 Y90.904 E6.65769
G1 X103.992 Y90.475 E6.68889
G1 X104.859 Y90.118 E6.72007
G1 X105.754 Y89.836 E6.75128
G1 X106.669 Y89.631 E6.78247
G1 X107.599 Y89.506 E6.81368
G1 X108.301 Y89.463 E6.83707
G1 X108.93 Y89.45 E6.858
G1 X125.85 Y89.451 E7.42076
G1 X126.551 Y89.461 E7.44408
G1 X127.487 Y89.514 E7.47526
G1 X128.416 Y89.647 E7.50647
G1 X129.329 Y89.859 E7.53764
G1 X130.222 Y90.147 E7.56885
G1 X131.086 Y90.511 E7.60004
G1 X131.917 Y90.947 E7.63125
G1 X132.707 Y91.452 E7.66243
G1 X133.451 Y92.022 E7.69361
G1 X134.144 Y92.654 E7.7248
G1 X134.781 Y93.343 E7.75601
G1 X135.357 Y94.083 E7.7872
G1 X135.835 Y94.814 E7.81625
G1 X136.314 Y95.615 E7.84729
G1 X136.661 Y96.215 E7.87034
G1 X137.987 Y98.372 E7.95456
G1 X139.364 Y100.476 E8.03819
G1 X140.802 Y102.542 E8.12191
G1 X142.293 Y104.561 E8.20539
G1 X143.835 Y106.53 E8.28857
G1 X145.846 Y108.942 E8.39302
G1 X146.514 Y109.774 E8.42851
G1 X147.068 Y110.531 E8.45971
G1 X147.576 Y111.369 E8.49231
G1 X147.835 Y111.843 E8.51027
G1 X148.249 Y112.685 E8.54148
G1 X148.571 Y113.502 E8.57069
G1 X148.728 Y113.953 E8.58657
G1 X148.998 Y114.851 E8.61776
G1 X149.144 Y115.509 E8.64017
G1 X149.282 Y116.233 E8.66469
G1 X149.419 Y117.161 E8.69589
G1 X149.477 Y118.293 E8.73359
G1 X149.477 Y118.874 E8.75291
G1 X149.437 Y119.811 E8.78411
G1 X149.312 Y120.774 E8.8164
G1 X149.218 Y121.31 E8.8345
G1 X149.016 Y122.226 E8.8657
G1 X148.756 Y123.07 E8.89507
G1 X148.611 Y123.481 E8.90957
G1 X148.131 Y124.63 E8.95099
G1 X147.815 Y125.28 E8.97503
G1 X147.369 Y126.106 E9.00625
G1 X146.575 Y127.263 E9.05292
G1 X146.305 Y127.607 E9.06746
G1 X145.695 Y128.319 E9.09865
G1 X145.256 Y128.764 E9.11944
G1 X144.219 Y129.756 E9.16717
G1 X143.437 Y130.477 E9.20255
G1 X141.653 Y132.212 E9.28532
G1 X139.905 Y134.011 E9.36875
G1 X138.043 Y136.065 E9.46095
G1 X137.836 Y136.274 E9.47074
G1 X137.16 Y137.031 E9.50449
G1 X136.508 Y137.701 E9.53559
G1 X135.732 Y138.428 E9.57096
G1 X134.951 Y139.128 E9.60584
G1 X134.163 Y139.772 E9.63969
G1 X133.276 Y140.43 E9.67642
G1 X132.465 Y141.004 E9.70947
G1 X131.626 Y141.54 E9.74258
G1 X130.673 Y142.089 E9.77916
G1 X129.827 Y142.554 E9.81127
G1 X128.921 Y142.996 E9.8448
G1 X127.638 Y143.548 E9.89125
G1 X126.996 Y143.808 E9.91429
G1 X126.061 Y144.138 E9.94727
G1 X124.99 Y144.463 E9.98449
G1 X124.037 Y144.729 E10.0174
G1 X123.168 Y144.932 E10.04708
G1 X122.505 Y145.058 E10.06953
G1 X121.096 Y145.291 E10.11703
G1 X120.114 Y145.407 E10.14992
G1 X119.096 Y145.477 E10.18386
G1 X118.022 Y145.528 E10.21962
G1 X116.979 Y145.528 E10.25431
G1 X115.883 Y145.476 E10.2908
G1 X114.92 Y145.41 E10.32291
G1 X114.005 Y145.306 E10.35354
G1 X113.263 Y145.19 E10.37851
G1 X111.959 Y144.957 E10.42257
G1 X110.979 Y144.733 E10.45601
G1 X109.968 Y144.45 E10.49093
G1 X108.95 Y144.141 E10.52631
G1 X108.035 Y143.818 E10.55858
G1 X107.067 Y143.424 E10.59334
G1 X106.1 Y143.005 E10.6284
G1 X105.174 Y142.551 E10.6627
G1 X103.98 Y141.891 E10.70807
G1 X103.333 Y141.514 E10.73298
G1 X102.543 Y141.008 E10.76418
G1 X101.906 Y140.56 E10.79009
G1 X100.861 Y139.79 E10.83326
G1 X100.089 Y139.164 E10.86632
G1 X99.312 Y138.469 E10.90099
G1 X98.55 Y137.759 E10.93563
G1 X97.845 Y137.039 E10.96915
G1 X97.032 Y136.128 E11.00976
G1 X96.905 Y135.996 E11.01585
G1 X95.81 Y134.776 E11.07037
G1 X94.096 Y132.97 E11.15319
G1 X92.288 Y131.172 E11.23799
G1 X89.943 Y128.968 E11.34503
G1 X89.025 Y127.993 E11.38957
G1 X88.636 Y127.526 E11.40979
G1 X88.067 Y126.781 E11.44097
G1 X87.564 Y125.989 E11.47217
G1 X87.329 Y125.562 E11.48838
G1 X87.109 Y125.139 E11.50424
G1 X86.602 Y124.015 E11.54525
G1 X86.336 Y123.324 E11.56988
G1 X86.037 Y122.435 E11.60108
G1 X85.815 Y121.524 E11.63226
G1 X85.714 Y120.936 E11.65211
G1 X85.634 Y120.379 E11.67082
G1 X85.54 Y119.446 E11.70201
G1 X85.522 Y118.815 E11.72301
G1 X85.522 Y118.308 E11.73987
G1 X85.562 Y117.371 E11.77106
G1 X85.672 Y116.497 E11.80036
G1 X85.768 Y115.922 E11.81975
G1 X85.962 Y115.004 E11.85096
G1 X86.124 Y114.434 E11.87067
G1 X86.301 Y113.871 E11.8903
G1 X86.621 Y112.989 E11.9215
G1 X87.113 Y111.949 E11.95977
G1 X87.422 Y111.376 E11.98142
G1 X87.902 Y110.57 E12.01262
G1 X88.489 Y109.757 E12.04597
G1 X89.043 Y109.067 E12.07541
G1 X89.957 Y107.985 E12.12251
G1 X91.617 Y105.956 E12.20971
G1 X93.144 Y103.976 E12.29287
G1 X94.615 Y101.953 E12.37606
G1 X96.03 Y99.887 E12.45935
G1 F2700 E7.45935
G0 F6000 X93.451 Y104.232
G1 F2700 E12.45935
G1 F1200 X94.952 Y102.169 E12.54421
G1 X96.38 Y100.084 E12.62826
G1 X97.729 Y97.988 E12.71116
G1 X99.521 Y95.003 E12.82696
G1 X100.029 Y94.235 E12.85759
G1 X100.601 Y93.514 E12.8882
G1 X101.234 Y92.845 E12.91883
G1 X101.922 Y92.234 E12.94944
G1 X102.661 Y91.685 E12.98005
G1 X103.445 Y91.202 E13.01068
G1 X104.268 Y90.789 E13.04131
G1 X105.123 Y90.449 E13.07191
G1 X106.005 Y90.184 E13.10254
G1 X106.906 Y89.997 E13.13315
G1 X107.821 Y89.888 E13.1638
G1 X108.312 Y89.863 E13.18015
G1 X108.93 Y89.85 E13.20071
G1 X125.693 Y89.85 E13.75825
G1 X126.545 Y89.861 E13.78659
G1 X127.464 Y89.914 E13.8172
G1 X128.375 Y90.047 E13.84783
G1 X129.271 Y90.258 E13.87844
G1 X130.146 Y90.546 E13.90908
G1 X130.992 Y90.909 E13.9397
G1 X131.803 Y91.344 E13.97031
G1 X132.574 Y91.848 E14.00095
G1 X133.298 Y92.417 E14.03157
G1 X133.97 Y93.046 E14.06219
G1 X134.585 Y93.731 E14.0928
G1 X135.138 Y94.467 E14.12342
G1 X135.491 Y95.02 E14.14524
G1 X136.054 Y95.963 E14.18177
G1 X136.326 Y96.434 E14.19986
G1 X137.644 Y98.579 E14.2836
G1 X139.017 Y100.678 E14.36702
G1 X140.485 Y102.785 E14.45243
G1 X141.984 Y104.816 E14.53639
G1 X143.513 Y106.767 E14.61883
G1 X145.539 Y109.198 E14.72409
G1 X146.201 Y110.024 E14.75929
G1 X146.745 Y110.767 E14.78992
G1 X147.225 Y111.561 E14.82078
G1 X147.484 Y112.035 E14.83875
G1 X147.89 Y112.862 E14.86939
G1 X148.193 Y113.633 E14.89694
G1 X148.35 Y114.084 E14.91282
G1 X148.614 Y114.966 E14.94345
G1 X148.752 Y115.584 E14.96451
G1 X148.89 Y116.308 E14.98902
G1 X149.022 Y117.219 E15.01964
G1 X149.077 Y118.293 E15.05541
G1 X149.077 Y118.874 E15.07473
G1 X149.037 Y119.794 E15.10536
G1 X148.918 Y120.705 E15.13592
G1 X148.824 Y121.241 E15.15402
G1 X148.625 Y122.14 E15.18464
G1 X148.379 Y122.937 E15.21238
G1 X148.234 Y123.348 E15.22688
G1 X147.771 Y124.456 E15.26682
G1 X147.455 Y125.106 E15.29086
G1 X147.017 Y125.915 E15.32145
G1 X146.26 Y127.016 E15.36589
G1 X145.99 Y127.36 E15.38044
G1 X145.391 Y128.058 E15.41103
G1 X144.979 Y128.475 E15.43053
G1 X143.791 Y129.609 E15.48515
G1 X143.172 Y130.179 E15.51314
G1 X141.335 Y131.965 E15.59836
G1 X139.604 Y133.746 E15.68096
G1 X137.746 Y135.796 E15.77298
G1 X137.547 Y135.998 E15.78241
G1 X136.862 Y136.764 E15.81659
G1 X136.233 Y137.41 E15.84658
G1 X135.465 Y138.13 E15.88159
G1 X134.684 Y138.83 E15.91648
G1 X133.924 Y139.45 E15.9491
G1 X133.037 Y140.108 E15.98583
G1 X132.234 Y140.677 E16.01857
G1 X131.426 Y141.193 E16.05045
G1 X130.263 Y141.86 E16.09504
G1 X129.635 Y142.203 E16.11884
G1 X128.762 Y142.629 E16.15115
G1 X127.717 Y143.081 E16.18902
G1 X126.846 Y143.437 E16.22032
G1 X125.945 Y143.755 E16.2521
G1 X124.613 Y144.156 E16.29836
G1 X123.931 Y144.344 E16.32189
G1 X123.093 Y144.539 E16.35051
G1 X122.43 Y144.665 E16.37296
G1 X121.032 Y144.896 E16.42008
G1 X120.085 Y145.008 E16.4518
G1 X119.335 Y145.062 E16.47681
G1 X118.003 Y145.128 E16.52117
G1 X116.998 Y145.128 E16.55459
G1 X115.649 Y145.061 E16.59952
G1 X114.949 Y145.011 E16.62286
G1 X114.067 Y144.911 E16.65238
G1 X113.075 Y144.753 E16.68579
G1 X112.03 Y144.564 E16.72111
G1 X111.086 Y144.348 E16.75332
G1 X110.084 Y144.067 E16.78793
G1 X109.066 Y143.758 E16.82332
G1 X108.184 Y143.447 E16.85442
G1 X107.479 Y143.163 E16.8797
G1 X106.259 Y142.638 E16.92388
G1 X105.367 Y142.201 E16.95691
G1 X104.181 Y141.546 E17.00198
G1 X103.534 Y141.169 E17.02688
G1 X102.773 Y140.68 E17.05697
G1 X101.931 Y140.085 E17.09126
G1 X101.098 Y139.469 E17.12572
G1 X100.355 Y138.865 E17.15757
G1 X99.585 Y138.176 E17.19193
G1 X98.823 Y137.466 E17.22657
G1 X98.143 Y136.772 E17.25889
G1 X97.271 Y135.796 E17.30242
G1 X97.203 Y135.729 E17.3056
G1 X96.115 Y134.517 E17.35977
G1 X94.368 Y132.676 E17.44418
G1 X92.561 Y130.879 E17.52894
G1 X90.217 Y128.676 E17.63593
G1 X89.332 Y127.737 E17.67885
G1 X88.943 Y127.27 E17.69906
G1 X88.385 Y126.538 E17.72968
G1 X87.684 Y125.377 E17.77478
G1 X87.464 Y124.954 E17.79064
G1 X86.976 Y123.871 E17.83015
G1 X86.71 Y123.18 E17.85478
G1 X86.417 Y122.307 E17.88541
G1 X86.2 Y121.412 E17.91604
G1 X86.11 Y120.879 E17.93401
G1 X86.03 Y120.322 E17.95273
G1 X85.938 Y119.406 E17.98335
G1 X85.922 Y118.815 E18.00301
G1 X85.922 Y118.308 E18.01988
G1 X85.962 Y117.388 E18.05051
G1 X86.067 Y116.562 E18.0782
G1 X86.163 Y115.987 E18.09759
G1 X86.354 Y115.087 E18.12819
G1 X86.506 Y114.554 E18.14662
G1 X86.683 Y113.991 E18.16625
G1 X86.997 Y113.125 E18.19689
G1 X87.465 Y112.139 E18.23319
G1 X87.774 Y111.566 E18.25484
G1 X88.246 Y110.775 E18.28548
G1 X88.802 Y110.006 E18.31704
G1 X89.145 Y109.574 E18.33539
G1 X90.26 Y108.247 E18.39304
G1 X91.913 Y106.227 E18.47985
G1 X93.451 Y104.232 E18.56363
G1 F2700 E13.56363
G0 F6000 X86.362 Y117.406
G1 F2700 E18.56363
G1 F1200 X86.461 Y116.628 E18.58972
G1 X86.557 Y116.053 E18.60911
G1 X86.745 Y115.17 E18.63914
G1 X86.888 Y114.674 E18.6563
G1 X87.065 Y114.111 E18.67593
G1 X87.373 Y113.262 E18.70597
G1 X87.817 Y112.329 E18.74034
G1 X88.126 Y111.756 E18.76199
G1 X88.59 Y110.98 E18.79206
G1 X89.116 Y110.254 E18.82188
G1 X89.654 Y109.584 E18.85046
G1 X90.594 Y108.471 E18.89892
G1 X92.22 Y106.484 E18.98431
G1 X93.793 Y104.444 E19.06999
G1 X95.262 Y102.425 E19.15304
G1 X96.703 Y100.32 E19.23788
G1 X98.08 Y98.181 E19.32249
G1 X99.864 Y95.209 E19.43778
G1 X100.362 Y94.456 E19.46781
G1 X100.926 Y93.75 E19.49786
G1 X101.549 Y93.097 E19.52788
G1 X102.228 Y92.501 E19.55793
G1 X102.957 Y91.968 E19.58797
G1 X103.73 Y91.501 E19.61801
G1 X104.542 Y91.105 E19.64805
G1 X105.385 Y90.782 E19.67808
G1 X106.254 Y90.535 E19.70813
G1 X107.141 Y90.365 E19.73817
G1 X108.323 Y90.263 E19.77763
G1 X108.93 Y90.25 E19.79782
G1 X125.693 Y90.25 E20.35536
G1 X126.539 Y90.261 E20.3835
G1 X127.441 Y90.314 E20.41355
G1 X128.334 Y90.446 E20.44358
G1 X129.213 Y90.657 E20.47364
G1 X130.069 Y90.945 E20.50368
G1 X130.896 Y91.307 E20.53371
G1 X131.688 Y91.741 E20.56374
G1 X132.438 Y92.244 E20.59378
G1 X133.141 Y92.811 E20.62382
G1 X133.791 Y93.437 E20.65383
G1 X134.384 Y94.119 E20.68389
G1 X135.148 Y95.225 E20.7286
G1 X135.708 Y96.163 E20.76494
G1 X135.988 Y96.648 E20.78356
G1 X137.296 Y98.776 E20.86664
G1 X138.714 Y100.943 E20.95278
G1 X140.15 Y103.006 E21.03638
