;FLAVOR:Marlin
;TIME:5108
;Filament used: 3.74208m
;Layer height: 0.2
;MINX:87.483
;MINY:90.566
;MINZ:0.2
;MAXX:141.564
;MAXY:139.742
;MAXZ:59
;Generated with Cura_SteamEngine main
M140 S50
M105
M190 S50
M104 S215
M105
M109 S215
M82 ;absolute extrusion mode
; Ender 3 Custom Start G-code
G92 E0 ; Reset Extruder
G28 ; Home all axes
G1 Z2.0 F3000 ; Move Z Axis up little to prevent scratching of Heat Bed
G1 X0.1 Y20 Z0.3 F5000.0 ; Move to start position
G1 X0.1 Y200.0 Z0.3 F1500.0 E15 ; Draw the first line
G1 X0.4 Y200.0 Z0.3 F5000.0 ; Move to side a little
G1 X0.4 Y20 Z0.3 F1500.0 E30 ; Draw the second line
G92 E0 ; Reset Extruder
G1 Z2.0 F3000 ; Move Z Axis up little to prevent scratching of Heat Bed
G1 X5 Y20 Z0.3 F5000.0 ; Move over to prevent blob squish
G92 E0
G92 E0
G1 F2700 E-5
;LAYER_COUNT:295
;LAYER:0
M107
G0 F6000 X93.103 Y93.848 Z0.2
G0 X87.483 Y105.167
;TYPE:SKIRT
G1 F2700 E0
G1 F1200 X87.511 Y104.196 E0.03231
G1 X87.62 Y103.231 E0.06461
G1 X87.807 Y102.277 E0.09694
G1 X88.072 Y101.343 E0.12923
G1 X88.413 Y100.433 E0.16156
G1 X88.828 Y99.555 E0.19386
G1 X89.314 Y98.714 E0.22616
G1 X89.827 Y97.968 E0.25628
G1 X91.817 Y95.303 E0.3669
G1 X92.43 Y94.549 E0.39922
G1 X93.103 Y93.848 E0.43154
G1 X93.831 Y93.205 E0.46385
G1 X94.609 Y92.624 E0.49614
G1 X95.433 Y92.109 E0.52846
G1 X96.296 Y91.664 E0.56076
G1 X97.193 Y91.291 E0.59307
G1 X98.117 Y90.993 E0.62536
G1 X99.063 Y90.772 E0.65767
G1 X100.024 Y90.629 E0.68998
G1 X100.993 Y90.566 E0.72228
G1 X101.965 Y90.583 E0.75461
G1 X102.931 Y90.68 E0.78691
G1 X103.887 Y90.856 E0.81924
G1 X104.824 Y91.11 E0.85153
G1 X105.738 Y91.441 E0.88386
G1 X107.025 Y92.061 E0.93137
G1 X107.747 Y92.465 E0.95889
G1 X109.236 Y93.325 E1.01608
G1 X110.54 Y94.064 E1.06593
G1 X112.795 Y95.275 E1.15106
G1 X115.007 Y96.386 E1.23339
G1 X117.28 Y97.445 E1.3168
G1 X119.578 Y98.438 E1.40006
G1 X121.874 Y99.355 E1.48229
G1 X124.232 Y100.22 E1.56583
G1 X126.566 Y101.002 E1.6477
G1 X128.961 Y101.73 E1.73096
G1 X132.044 Y102.561 E1.83716
G1 X132.594 Y102.698 E1.85601
G1 X133.526 Y102.972 E1.88832
G1 X134.432 Y103.322 E1.92062
G1 X135.307 Y103.745 E1.95295
G1 X136.143 Y104.238 E1.98523
G1 X136.937 Y104.799 E2.01756
G1 X137.681 Y105.423 E2.04986
G1 X138.372 Y106.106 E2.08217
G1 X139.004 Y106.843 E2.11447
G1 X139.573 Y107.63 E2.14677
G1 X140.076 Y108.462 E2.1791
G1 X140.509 Y109.331 E2.2114
G1 X140.868 Y110.234 E2.24372
G1 X141.152 Y111.163 E2.27603
G1 X141.359 Y112.112 E2.30833
G1 X141.487 Y113.075 E2.34064
G1 X141.523 Y113.595 E2.35798
G1 X141.558 Y114.548 E2.3897
G1 X141.564 Y115.57 E2.42369
G1 X141.552 Y116.253 E2.44641
G1 X141.487 Y117.223 E2.47875
G1 X141.343 Y118.183 E2.51103
G1 X141.12 Y119.129 E2.54336
G1 X140.82 Y120.053 E2.57567
G1 X140.445 Y120.949 E2.60798
G1 X139.998 Y121.811 E2.64027
G1 X139.481 Y122.634 E2.6726
G1 X138.898 Y123.411 E2.70491
G1 X138.253 Y124.137 E2.73721
G1 X137.551 Y124.809 E2.76953
G1 X136.796 Y125.42 E2.80183
G1 X135.993 Y125.967 E2.83415
G1 X135.148 Y126.446 E2.86646
G1 X134.267 Y126.854 E2.89875
G1 X132.908 Y127.321 E2.94654
G1 X132.299 Y127.489 E2.96755
G1 X130.544 Y127.949 E3.0279
G1 X128.154 Y128.65 E3.11074
G1 X125.787 Y129.417 E3.19349
G1 X123.454 Y130.246 E3.27584
G1 X121.117 Y131.15 E3.35919
G1 X118.822 Y132.116 E3.442
G1 X116.537 Y133.154 E3.52548
G1 X114.313 Y134.241 E3.60781
G1 X112.038 Y135.434 E3.69325
G1 X110.584 Y136.241 E3.74856
G1 X109.104 Y137.094 E3.80538
G1 X107.795 Y137.863 E3.85587
G1 X107.187 Y138.208 E3.87912
G1 X106.323 Y138.652 E3.91143
G1 X105.425 Y139.024 E3.94376
G1 X104.5 Y139.32 E3.97606
G1 X103.554 Y139.54 E4.00836
G1 X102.593 Y139.681 E4.04067
G1 X101.623 Y139.742 E4.073
G1 X100.652 Y139.724 E4.1053
G1 X99.686 Y139.625 E4.13759
G1 X98.731 Y139.448 E4.1699
G1 X97.793 Y139.192 E4.20224
G1 X96.88 Y138.86 E4.23455
G1 X95.998 Y138.455 E4.26683
G1 X95.152 Y137.978 E4.29913
G1 X94.347 Y137.433 E4.33147
G1 X93.591 Y136.824 E4.36375
G1 X92.887 Y136.154 E4.39608
G1 X91.963 Y135.078 E4.44325
G1 X89.953 Y132.429 E4.55385
G1 X89.398 Y131.631 E4.58618
G1 X88.911 Y130.791 E4.61847
G1 X88.494 Y129.914 E4.65077
G1 X88.151 Y129.005 E4.68309
G1 X87.884 Y128.071 E4.7154
G1 X87.695 Y127.118 E4.74771
G1 X87.584 Y126.153 E4.78002
G1 X87.554 Y125.182 E4.81233
G1 X87.588 Y124.384 E4.83889
G1 X87.638 Y123.739 E4.86041
G1 X87.771 Y122.259 E4.90984
G1 X87.927 Y119.762 E4.99305
G1 X88.011 Y117.286 E5.07545
G1 X88.024 Y114.774 E5.159
G1 X87.968 Y112.294 E5.2415
G1 X87.84 Y109.782 E5.32516
G1 X87.638 Y107.239 E5.41001
G1 X87.534 Y106.137 E5.44682
G1 X87.483 Y105.167 E5.47913
G0 F6000 X87.883 Y105.146
G1 F1200 X87.913 Y104.191 E5.51091
G1 X88.023 Y103.243 E5.54265
G1 X88.211 Y102.307 E5.57441
G1 X88.478 Y101.39 E5.60617
G1 X88.82 Y100.499 E5.63791
G1 X89.236 Y99.639 E5.66969
G1 X89.722 Y98.818 E5.70142
G1 X90.148 Y98.207 E5.72619
G1 X92.138 Y95.542 E5.83682
G1 X92.74 Y94.802 E5.86855
G1 X93.403 Y94.114 E5.90033
G1 X94.121 Y93.485 E5.93207
G1 X94.889 Y92.918 E5.96382
G1 X95.702 Y92.417 E5.99559
G1 X96.553 Y91.985 E6.02733
G1 X97.438 Y91.627 E6.05908
G1 X98.35 Y91.344 E6.09084
G1 X99.283 Y91.138 E6.12262
G1 X100.229 Y91.011 E6.15437
G1 X101.182 Y90.963 E6.1861
G1 X102.137 Y90.996 E6.21789
G1 X103.085 Y91.108 E6.24964
G1 X104.02 Y91.299 E6.28138
G1 X104.936 Y91.568 E6.31313
G1 X105.827 Y91.913 E6.34491
G1 X106.83 Y92.41 E6.38214
G1 X107.547 Y92.811 E6.40946
G1 X109.062 Y93.686 E6.46765
G1 X110.367 Y94.425 E6.51753
G1 X112.619 Y95.635 E6.60256
G1 X114.824 Y96.742 E6.68463
G1 X117.101 Y97.803 E6.76818
G1 X119.407 Y98.8 E6.85174
G1 X121.736 Y99.73 E6.93515
G1 X124.104 Y100.599 E7.01904
G1 X126.469 Y101.391 E7.102
G1 X128.859 Y102.117 E7.18507
G1 X131.903 Y102.938 E7.28994
G1 X132.497 Y103.086 E7.3103
G1 X133.413 Y103.356 E7.34206
G1 X134.303 Y103.702 E7.37382
G1 X135.161 Y104.121 E7.40558
G1 X135.981 Y104.61 E7.43733
G1 X136.757 Y105.166 E7.46908
G1 X137.484 Y105.785 E7.50084
G1 X138.157 Y106.462 E7.53259
G1 X138.77 Y107.194 E7.56435
G1 X139.32 Y107.974 E7.59609
G1 X139.803 Y108.798 E7.62786
G1 X140.215 Y109.659 E7.6596
G1 X140.554 Y110.552 E7.69137
G1 X140.817 Y111.47 E7.72313
G1 X141.002 Y112.406 E7.75487
G1 X141.124 Y113.614 E7.79525
G1 X141.158 Y114.55 E7.8264
G1 X141.164 Y115.572 E7.8604
G1 X141.152 Y116.243 E7.88272
G1 X141.088 Y117.196 E7.91448
G1 X140.944 Y118.14 E7.94625
G1 X140.721 Y119.068 E7.97799
G1 X140.422 Y119.975 E8.00975
G1 X140.048 Y120.853 E8.0415
G1 X139.601 Y121.697 E8.07326
G1 X139.086 Y122.501 E8.10502
G1 X138.505 Y123.259 E8.13678
G1 X137.863 Y123.965 E8.16852
G1 X137.164 Y124.615 E8.20027
G1 X136.413 Y125.205 E8.23203
G1 X135.615 Y125.729 E8.26379
G1 X134.776 Y126.185 E8.29555
G1 X133.902 Y126.569 E8.3273
G1 X132.801 Y126.936 E8.3659
G1 X132.198 Y127.102 E8.3867
G1 X130.436 Y127.564 E8.44728
G1 X128.055 Y128.262 E8.52981
G1 X125.634 Y129.047 E8.61446
G1 X123.312 Y129.872 E8.69642
G1 X120.995 Y130.768 E8.77904
G1 X118.651 Y131.755 E8.86364
G1 X116.375 Y132.789 E8.94678
G1 X114.103 Y133.899 E9.03089
G1 X111.886 Y135.062 E9.11415
G1 X110.368 Y135.904 E9.17189
G1 X108.904 Y136.748 E9.22809
G1 X107.597 Y137.515 E9.2785
G1 X106.989 Y137.86 E9.30175
G1 X106.14 Y138.296 E9.33349
G1 X105.257 Y138.659 E9.36525
G1 X104.347 Y138.948 E9.397
G1 X103.415 Y139.159 E9.42878
G1 X102.47 Y139.291 E9.46052
G1 X101.517 Y139.344 E9.49227
G1 X100.562 Y139.317 E9.52404
G1 X99.613 Y139.21 E9.55581
G1 X98.677 Y139.024 E9.58755
G1 X97.759 Y138.76 E9.61932
G1 X96.867 Y138.421 E9.65106
G1 X96.006 Y138.008 E9.68282
G1 X95.183 Y137.524 E9.71457
G1 X94.403 Y136.974 E9.74632
G1 X93.672 Y136.36 E9.77807
G1 X92.995 Y135.686 E9.80984
G1 X92.281 Y134.836 E9.84676
G1 X90.271 Y132.187 E9.95736
G1 X89.727 Y131.403 E9.9891
G1 X89.249 Y130.576 E10.02087
G1 X88.843 Y129.712 E10.05262
G1 X88.51 Y128.817 E10.08438
G1 X88.254 Y127.897 E10.11615
G1 X88.075 Y126.959 E10.14791
G1 X87.975 Y126.01 E10.17964
G1 X87.956 Y125.055 E10.21141
G1 X87.987 Y124.415 E10.23273
G1 X88.049 Y123.626 E10.25905
G1 X88.17 Y122.284 E10.30387
G1 X88.327 Y119.766 E10.38778
G1 X88.411 Y117.301 E10.46981
G1 X88.424 Y114.767 E10.55409
G1 X88.367 Y112.252 E10.63776
G1 X88.24 Y109.766 E10.72056
G1 X88.039 Y107.236 E10.80497
G1 X87.932 Y106.099 E10.84295
G1 X87.883 Y105.146 E10.87469
G0 F6000 X88.282 Y105.125
G1 F1200 X88.314 Y104.188 E10.90587
G1 X88.426 Y103.256 E10.9371
G1 X88.616 Y102.338 E10.96828
G1 X88.884 Y101.439 E10.99948
G1 X89.227 Y100.567 E11.03064
G1 X89.644 Y99.726 E11.06186
G1 X90.131 Y98.925 E11.09304
G1 X90.468 Y98.447 E11.1125
G1 X92.458 Y95.782 E11.22312
G1 X93.051 Y95.055 E11.25432
G1 X93.703 Y94.381 E11.28551
G1 X94.411 Y93.765 E11.31673
G1 X95.168 Y93.212 E11.34791
G1 X95.97 Y92.725 E11.37911
G1 X96.81 Y92.309 E11.41029
G1 X97.683 Y91.965 E11.4415
G1 X98.581 Y91.697 E11.47267
G1 X99.5 Y91.507 E11.50388
G1 X100.431 Y91.395 E11.53507
G1 X101.368 Y91.363 E11.56625
G1 X102.305 Y91.412 E11.59746
G1 X103.234 Y91.539 E11.62865
G1 X104.149 Y91.746 E11.65985
G1 X105.043 Y92.03 E11.69105
G1 X105.909 Y92.388 E11.72222
G1 X106.635 Y92.759 E11.74933
G1 X107.208 Y93.079 E11.77116
G1 X108.782 Y93.987 E11.8316
G1 X110.16 Y94.767 E11.88426
G1 X112.43 Y95.987 E11.96998
G1 X114.654 Y97.104 E12.05275
G1 X116.952 Y98.175 E12.13708
G1 X119.266 Y99.175 E12.22092
G1 X121.587 Y100.101 E12.30404
G1 X123.956 Y100.971 E12.38798
G1 X126.363 Y101.777 E12.4724
G1 X128.736 Y102.498 E12.55489
G1 X131.811 Y103.327 E12.66082
G1 X132.4 Y103.474 E12.68101
G1 X133.3 Y103.74 E12.71222
G1 X134.173 Y104.082 E12.74341
G1 X135.014 Y104.496 E12.77458
G1 X135.817 Y104.981 E12.80579
G1 X136.576 Y105.532 E12.83698
G1 X137.285 Y106.146 E12.86818
G1 X137.939 Y106.818 E12.89936
G1 X138.533 Y107.544 E12.93056
G1 X139.064 Y108.317 E12.96176
G1 X139.527 Y109.133 E12.99296
G1 X139.918 Y109.985 E13.02414
G1 X140.236 Y110.868 E13.05535
G1 X140.477 Y111.774 E13.08654
G1 X140.64 Y112.697 E13.11771
G1 X140.724 Y113.633 E13.14897
G1 X140.758 Y114.552 E13.17955
G1 X140.764 Y115.574 E13.21355
G1 X140.752 Y116.233 E13.23547
G1 X140.688 Y117.169 E13.26667
G1 X140.545 Y118.095 E13.29784
G1 X140.323 Y119.007 E13.32906
G1 X140.024 Y119.896 E13.36025
G1 X139.651 Y120.756 E13.39143
G1 X139.205 Y121.581 E13.42262
G1 X138.691 Y122.366 E13.45383
G1 X138.112 Y123.104 E13.48503
G1 X137.472 Y123.789 E13.51621
G1 X136.777 Y124.418 E13.54739
G1 X136.03 Y124.985 E13.57858
G1 X135.237 Y125.487 E13.60979
G1 X134.405 Y125.919 E13.64097
G1 X133.539 Y126.279 E13.67217
G1 X132.694 Y126.55 E13.70168
G1 X132.096 Y126.715 E13.72231
G1 X130.326 Y127.179 E13.78317
G1 X127.935 Y127.88 E13.86605
G1 X125.547 Y128.654 E13.94954
G1 X123.151 Y129.505 E14.03411
G1 X120.82 Y130.407 E14.11724
G1 X118.492 Y131.387 E14.20125
G1 X116.2 Y132.429 E14.28499
G1 X113.948 Y133.529 E14.36835
G1 X111.686 Y134.715 E14.4533
G1 X110.18 Y135.551 E14.51059
G1 X108.759 Y136.37 E14.56514
G1 X107.546 Y137.083 E14.61194
G1 X106.792 Y137.512 E14.64079
G1 X105.957 Y137.94 E14.672
G1 X105.089 Y138.295 E14.70319
G1 X104.194 Y138.575 E14.73438
G1 X103.278 Y138.777 E14.76558
G1 X102.348 Y138.901 E14.79678
G1 X101.412 Y138.945 E14.82795
G1 X100.474 Y138.909 E14.85917
G1 X99.544 Y138.793 E14.89034
G1 X98.626 Y138.599 E14.92155
G1 X97.728 Y138.327 E14.95276
G1 X96.857 Y137.98 E14.98394
G1 X96.019 Y137.56 E15.01512
G1 X95.219 Y137.069 E15.04634
G1 X94.464 Y136.513 E15.07752
G1 X93.76 Y135.894 E15.1087
G1 X93.11 Y135.218 E15.13989
G1 X92.6 Y134.594 E15.1667
G1 X90.59 Y131.945 E15.2773
G1 X90.056 Y131.174 E15.30849
G1 X89.589 Y130.361 E15.33967
G1 X89.193 Y129.511 E15.37086
G1 X88.87 Y128.63 E15.40207
G1 X88.625 Y127.725 E15.43326
G1 X88.457 Y126.802 E15.46446
G1 X88.368 Y125.869 E15.49563
G1 X88.359 Y124.931 E15.52683
G1 X88.386 Y124.446 E15.54299
G1 X88.436 Y123.801 E15.56451
G1 X88.567 Y122.345 E15.61313
G1 X88.725 Y119.804 E15.69781
G1 X88.811 Y117.282 E15.78174
G1 X88.824 Y114.76 E15.86562
G1 X88.767 Y112.252 E15.94906
G1 X88.638 Y109.715 E16.03355
G1 X88.435 Y107.167 E16.11856
G1 X88.331 Y106.062 E16.15548
G1 X88.282 Y105.125 E16.18668
G0 F6000 X88.682 Y105.105
G1 F1200 X88.716 Y104.185 E16.2173
G1 X88.829 Y103.271 E16.24794
G1 X89.021 Y102.37 E16.27858
G1 X89.29 Y101.49 E16.30918
G1 X89.635 Y100.636 E16.33982
G1 X90.052 Y99.816 E16.37041
G1 X90.789 Y98.686 E16.41529
G1 X92.779 Y96.021 E16.52591
G1 X93.361 Y95.308 E16.55652
G1 X94.003 Y94.648 E16.58714
G1 X94.7 Y94.046 E16.61778
G1 X95.446 Y93.507 E16.64839
G1 X96.237 Y93.035 E16.67902
G1 X97.065 Y92.634 E16.70962
G1 X97.925 Y92.305 E16.74025
G1 X98.811 Y92.053 E16.77089
G1 X99.714 Y91.878 E16.80148
G1 X100.63 Y91.782 E16.83211
G1 X101.551 Y91.767 E16.86275
G1 X102.469 Y91.831 E16.89335
G1 X103.378 Y91.974 E16.92396
G1 X104.272 Y92.196 E16.9546
G1 X105.143 Y92.495 E16.98523
G1 X105.985 Y92.868 E17.01586
G1 X106.44 Y93.108 E17.03297
G1 X107.013 Y93.428 E17.05479
G1 X108.585 Y94.335 E17.11516
G1 X110.005 Y95.14 E17.16945
G1 X112.225 Y96.332 E17.25326
G1 X114.484 Y97.466 E17.33733
G1 X116.761 Y98.527 E17.42088
G1 X119.109 Y99.542 E17.50596
G1 X121.48 Y100.489 E17.59088
G1 X123.828 Y101.35 E17.67406
G1 X126.225 Y102.154 E17.75814
G1 X128.613 Y102.879 E17.84115
G1 X131.77 Y103.73 E17.9499
G1 X132.303 Y103.863 E17.96817
G1 X133.186 Y104.124 E17.9988
G1 X134.043 Y104.461 E18.02942
G1 X134.867 Y104.872 E18.06005
G1 X135.652 Y105.352 E18.09065
G1 X136.393 Y105.898 E18.12127
G1 X137.084 Y106.507 E18.1519
G1 X137.719 Y107.173 E18.18251
G1 X138.294 Y107.892 E18.21313
G1 X138.804 Y108.659 E18.24377
G1 X139.247 Y109.466 E18.27438
G1 X139.617 Y110.309 E18.305
G1 X139.913 Y111.181 E18.33563
G1 X140.132 Y112.075 E18.36625
G1 X140.272 Y112.985 E18.39687
G1 X140.324 Y113.651 E18.41909
G1 X140.358 Y114.555 E18.44918
G1 X140.364 Y115.577 E18.48317
G1 X140.352 Y116.223 E18.50466
G1 X140.289 Y117.141 E18.53526
G1 X140.146 Y118.05 E18.56587
G1 X139.924 Y118.944 E18.59651
G1 X139.626 Y119.815 E18.62712
G1 X139.254 Y120.657 E18.65774
G1 X138.809 Y121.463 E18.68836
G1 X138.297 Y122.228 E18.71898
G1 X137.72 Y122.946 E18.74962
G1 X137.083 Y123.61 E18.78022
G1 X136.39 Y124.217 E18.81086
G1 X135.648 Y124.762 E18.84148
G1 X134.861 Y125.24 E18.87211
G1 X134.036 Y125.648 E18.90272
G1 X133.178 Y125.982 E18.93334
G1 X132.587 Y126.165 E18.95392
G1 X131.995 Y126.328 E18.97434
G1 X130.251 Y126.786 E19.03432
G1 X127.794 Y127.505 E19.11946
G1 X125.405 Y128.28 E19.203
G1 X123.009 Y129.131 E19.28757
G1 X120.669 Y130.037 E19.37102
G1 X118.338 Y131.018 E19.45514
G1 X116.037 Y132.063 E19.53919
G1 X113.765 Y133.173 E19.6233
G1 X111.485 Y134.369 E19.70893
G1 X109.965 Y135.213 E19.76676
G1 X108.583 Y136.009 E19.8198
G1 X107.343 Y136.738 E19.86764
G1 X106.594 Y137.164 E19.8963
G1 X105.775 Y137.583 E19.9269
G1 X104.922 Y137.93 E19.95753
G1 X104.042 Y138.201 E19.98815
G1 X103.142 Y138.395 E20.01878
G1 X102.228 Y138.51 E20.04942
G1 X101.308 Y138.545 E20.08004
G1 X100.389 Y138.5 E20.11064
G1 X99.477 Y138.376 E20.14125
G1 X98.579 Y138.173 E20.17187
G1 X97.702 Y137.893 E20.20249
G1 X96.852 Y137.537 E20.23314
G1 X96.037 Y137.11 E20.26375
G1 X95.262 Y136.613 E20.29437
G1 X94.533 Y136.051 E20.32498
G1 X93.855 Y135.428 E20.35561
G1 X93.234 Y134.748 E20.38624
G1 X92.919 Y134.352 E20.40307
G1 X90.909 Y131.703 E20.51366
G1 X90.385 Y130.946 E20.54429
G1 X89.928 Y130.147 E20.5749
G1 X89.543 Y129.311 E20.60551
G1 X89.231 Y128.444 E20.63616
G1 X88.996 Y127.554 E20.66678
G1 X88.839 Y126.647 E20.69739
G1 X88.762 Y125.73 E20.728
G1 X88.785 Y124.477 E20.76968
G1 X88.846 Y123.698 E20.79567
G1 X88.969 Y122.336 E20.84115
G1 X89.124 Y119.842 E20.92427
G1 X89.211 Y117.297 E21.00896
G1 X89.224 Y114.753 E21.09358
G1 X89.167 Y112.241 E21.17715
G1 X89.04 Y109.732 E21.2607
G1 X88.83 Y107.098 E21.34859
G1 X88.729 Y106.024 E21.38447
G1 X88.682 Y105.105 E21.41507
G0 F6000 X89.082 Y105.085
G1 F1200 X89.117 Y104.182 E21.44513
G1 X89.232 Y103.286 E21.47518
G1 X89.425 Y102.404 E21.50521
G1 X89.696 Y101.543 E21.53523
G1 X90.042 Y100.708 E21.56529
G1 X90.46 Y99.908 E21.59531
G1 X91.109 Y98.925 E21.63449
G1 X93.099 Y96.26 E21.74511
G1 X93.671 Y95.561 E21.77515
G1 X94.302 Y94.916 E21.80516
G1 X94.988 Y94.328 E21.83522
G1 X95.724 Y93.804 E21.86527
G1 X96.503 Y93.347 E21.8953
G1 X97.319 Y92.96 E21.92534
G1 X98.166 Y92.647 E21.95538
