;FLAVOR:Marlin
;TIME:2951
;Filament used: 1.53522m
;Layer height: 0.12
;MINX:81.601
;MINY:95.15
;MINZ:0.12
;MAXX:153.399
;MAXY:139.849
;MAXZ:5.04
;Generated with Cura_SteamEngine main
M140 S60
M105
M190 S60
M104 S215
M105
M109 S215
M82 ;absolute extrusion mode
; Ender 3 Custom Start G-code
G92 E0 ; Reset Extruder
G28 ; Home all axes
G1 Z2.0 F3000 ; Move Z Axis up little to prevent scratching of Heat Bed
G1 X0.1 Y20 Z0.3 F5000.0 ; Move to start position
G1 X0.1 Y200.0 Z0.3 F1500.0 E15 ; Draw the first line
G1 X0.4 Y200.0 Z0.3 F5000.0 ; Move to side a little
G1 X0.4 Y20 Z0.3 F1500.0 E30 ; Draw the second line
G92 E0 ; Reset Extruder
G1 Z2.0 F3000 ; Move Z Axis up little to prevent scratching of Heat Bed
G1 X5 Y20 Z0.3 F5000.0 ; Move over to prevent blob squish
G92 E0
G92 E0
G1 F2700 E-5
;LAYER_COUNT:42
;LAYER:0
M107
G0 F6000 X86.115 Y98.21 Z0.12
G0 X81.906 Y105.231
;TYPE:SKIRT
G1 F2700 E0
G1 F1200 X82.194 Y104.149 E0.02234
G1 X82.52 Y103.234 E0.04173
G1 X82.848 Y102.494 E0.05788
G1 X82.982 Y102.218 E0.064
G1 X83.442 Y101.363 E0.08338
G1 X83.97 Y100.548 E0.10276
G1 X84.564 Y99.779 E0.12215
G1 X85.194 Y99.087 E0.14083
G1 X85.405 Y98.873 E0.14682
G1 X86.115 Y98.21 E0.16621
G1 X86.877 Y97.608 E0.18559
G1 X87.686 Y97.07 E0.20498
G1 X88.342 Y96.701 E0.22
G1 X88.606 Y96.563 E0.22594
G1 X89.484 Y96.148 E0.24532
G1 X90.394 Y95.808 E0.26471
G1 X91.212 Y95.567 E0.28173
G1 X92.246 Y95.344 E0.30283
G1 X93.209 Y95.217 E0.32222
G1 X94.037 Y95.171 E0.33877
G1 X95.009 Y95.152 E0.35817
G1 X139.999 Y95.15 E1.25599
G1 X140.82 Y95.16 E1.27238
G1 X141.79 Y95.213 E1.29176
G1 X142.752 Y95.346 E1.31114
G1 X143.48 Y95.499 E1.32599
G1 X144.418 Y95.75 E1.34537
G1 X145.333 Y96.077 E1.36476
G1 X146.024 Y96.383 E1.37984
G1 X146.302 Y96.517 E1.386
G1 X147.159 Y96.975 E1.40539
G1 X147.975 Y97.501 E1.42476
G1 X148.745 Y98.093 E1.44415
G1 X149.463 Y98.744 E1.46349
G1 X149.677 Y98.955 E1.46948
G1 X150.34 Y99.665 E1.48887
G1 X150.942 Y100.427 E1.50825
G1 X151.48 Y101.236 E1.52764
G1 X151.849 Y101.892 E1.54266
G1 X151.987 Y102.156 E1.5486
G1 X152.402 Y103.034 E1.56798
G1 X152.742 Y103.944 E1.58737
G1 X152.997 Y104.831 E1.60579
G1 X153.204 Y105.78 E1.62517
G1 X153.332 Y106.743 E1.64456
G1 X153.379 Y107.581 E1.66131
G1 X153.398 Y108.53 E1.68025
G1 X153.399 Y126.574 E2.04034
G1 X153.39 Y127.263 E2.05409
G1 X153.337 Y128.233 E2.07347
G1 X153.205 Y129.195 E2.09285
G1 X153.051 Y129.93 E2.10784
G1 X152.8 Y130.868 E2.12722
G1 X152.473 Y131.783 E2.14661
G1 X152.167 Y132.474 E2.16169
G1 X152.033 Y132.752 E2.16785
G1 X151.575 Y133.609 E2.18724
G1 X151.049 Y134.425 E2.20661
G1 X150.457 Y135.195 E2.22599
G1 X149.806 Y135.913 E2.24534
G1 X149.595 Y136.127 E2.25133
G1 X148.885 Y136.79 E2.27072
G1 X148.123 Y137.392 E2.2901
G1 X147.314 Y137.93 E2.30949
G1 X146.658 Y138.299 E2.32451
G1 X146.394 Y138.437 E2.33045
G1 X145.516 Y138.852 E2.34983
G1 X144.606 Y139.192 E2.36922
G1 X143.788 Y139.433 E2.38624
G1 X142.754 Y139.656 E2.40735
G1 X141.791 Y139.783 E2.42673
G1 X140.963 Y139.829 E2.44328
G1 X139.991 Y139.848 E2.46268
G1 X94.84 Y139.849 E3.36372
G1 X94.18 Y139.84 E3.37689
G1 X93.21 Y139.787 E3.39628
G1 X92.248 Y139.654 E3.41566
G1 X91.52 Y139.501 E3.4305
G1 X90.582 Y139.25 E3.44988
G1 X89.667 Y138.923 E3.46927
G1 X88.976 Y138.617 E3.48435
G1 X88.698 Y138.483 E3.49051
G1 X87.841 Y138.025 E3.5099
G1 X87.025 Y137.499 E3.52927
G1 X86.255 Y136.907 E3.54866
G1 X85.537 Y136.256 E3.568
G1 X85.323 Y136.045 E3.574
G1 X84.66 Y135.335 E3.59338
G1 X84.058 Y134.573 E3.61276
G1 X83.52 Y133.764 E3.63215
G1 X83.151 Y133.108 E3.64717
G1 X83.013 Y132.844 E3.65311
G1 X82.598 Y131.966 E3.67249
G1 X82.258 Y131.056 E3.69188
G1 X82.003 Y130.169 E3.7103
G1 X81.796 Y129.22 E3.72968
G1 X81.668 Y128.257 E3.74907
G1 X81.621 Y127.413 E3.76594
G1 X81.602 Y126.44 E3.78536
G1 X81.601 Y108.354 E4.14628
G1 X81.61 Y107.723 E4.15888
G1 X81.664 Y106.753 E4.17827
G1 X81.906 Y105.231 E4.20902
G1 F2700 E-0.79098
G0 F6000 X82.001 Y108.359
G1 F2700 E4.20902
G1 F1200 X82.01 Y107.728 E4.22161
G1 X82.064 Y106.775 E4.24066
G1 X82.296 Y105.318 E4.27011
G1 X82.58 Y104.252 E4.29212
G1 X82.903 Y103.354 E4.31116
G1 X83.208 Y102.669 E4.32613
G1 X83.342 Y102.393 E4.33225
G1 X83.794 Y101.552 E4.3513
G1 X84.316 Y100.752 E4.37037
G1 X84.902 Y99.999 E4.38941
G1 X85.479 Y99.368 E4.40647
G1 X85.69 Y99.154 E4.41247
G1 X86.389 Y98.503 E4.43153
G1 X87.139 Y97.912 E4.45059
G1 X87.936 Y97.387 E4.46963
G1 X88.527 Y97.055 E4.48316
G1 X88.791 Y96.917 E4.4891
G1 X89.655 Y96.511 E4.50816
G1 X90.55 Y96.178 E4.52721
G1 X91.397 Y95.936 E4.54479
G1 X92.331 Y95.735 E4.56386
G1 X93.277 Y95.612 E4.58289
G1 X94.045 Y95.571 E4.59824
G1 X95.24 Y95.55 E4.62209
G1 X139.999 Y95.55 E5.51531
G1 X140.814 Y95.56 E5.53157
G1 X141.768 Y95.613 E5.55064
G1 X143.25 Y95.851 E5.5806
G1 X144.315 Y96.136 E5.6026
G1 X145.213 Y96.46 E5.62165
G1 X145.85 Y96.744 E5.63557
G1 X146.128 Y96.878 E5.64172
G1 X146.97 Y97.328 E5.66078
G1 X147.771 Y97.847 E5.67982
G1 X148.526 Y98.431 E5.69887
G1 X149.182 Y99.029 E5.71659
G1 X149.396 Y99.24 E5.72258
G1 X150.047 Y99.939 E5.74165
G1 X150.638 Y100.689 E5.7607
G1 X151.163 Y101.486 E5.77975
G1 X151.495 Y102.077 E5.79327
G1 X151.633 Y102.341 E5.79922
G1 X152.039 Y103.205 E5.81827
G1 X152.372 Y104.1 E5.83733
G1 X152.61 Y104.932 E5.8546
G1 X152.813 Y105.865 E5.87365
G1 X152.937 Y106.812 E5.89271
G1 X152.979 Y107.589 E5.90824
G1 X152.998 Y108.538 E5.92718
G1 X152.999 Y126.569 E6.28701
G1 X152.99 Y127.258 E6.30076
G1 X152.938 Y128.211 E6.31981
G1 X152.699 Y129.7 E6.3499
G1 X152.414 Y130.765 E6.3719
G1 X152.09 Y131.663 E6.39095
G1 X151.806 Y132.3 E6.40487
G1 X151.672 Y132.578 E6.41103
G1 X151.222 Y133.42 E6.43008
G1 X150.703 Y134.221 E6.44913
G1 X150.119 Y134.976 E6.46818
G1 X149.521 Y135.632 E6.48589
G1 X149.31 Y135.846 E6.49189
G1 X148.611 Y136.497 E6.51095
G1 X147.861 Y137.088 E6.53001
G1 X147.064 Y137.613 E6.54905
G1 X146.473 Y137.945 E6.56258
G1 X146.209 Y138.083 E6.56852
G1 X145.345 Y138.489 E6.58758
G1 X144.45 Y138.822 E6.60663
G1 X143.603 Y139.064 E6.62421
G1 X142.669 Y139.265 E6.64328
G1 X141.723 Y139.388 E6.66231
G1 X140.955 Y139.429 E6.67766
G1 X139.76 Y139.45 E6.70151
G1 X94.846 Y139.449 E7.59782
G1 X94.186 Y139.44 E7.61099
G1 X93.232 Y139.387 E7.63006
G1 X91.75 Y139.149 E7.66002
G1 X90.685 Y138.864 E7.68202
G1 X89.787 Y138.54 E7.70107
G1 X89.15 Y138.256 E7.71499
G1 X88.872 Y138.122 E7.72114
G1 X88.03 Y137.672 E7.7402
G1 X87.229 Y137.153 E7.75924
G1 X86.474 Y136.569 E7.77829
G1 X85.818 Y135.971 E7.79601
G1 X85.604 Y135.76 E7.802
G1 X84.953 Y135.061 E7.82107
G1 X84.362 Y134.311 E7.84012
G1 X83.837 Y133.514 E7.85917
G1 X83.505 Y132.923 E7.87269
G1 X83.367 Y132.659 E7.87864
G1 X82.961 Y131.795 E7.89769
G1 X82.628 Y130.9 E7.91675
G1 X82.39 Y130.068 E7.93402
G1 X82.187 Y129.135 E7.95307
G1 X82.063 Y128.188 E7.97213
G1 X82.021 Y127.406 E7.98776
G1 X82 Y126.21 E8.01163
G1 X82.001 Y108.359 E8.36787
G0 F6000 X82.401 Y108.365
G1 F1200 X82.41 Y107.734 E8.38046
G1 X82.463 Y106.798 E8.39917
G1 X82.688 Y105.402 E8.42739
G1 X82.967 Y104.356 E8.44899
G1 X83.286 Y103.474 E8.46771
G1 X83.568 Y102.844 E8.48148
G1 X83.702 Y102.568 E8.4876
G1 X84.147 Y101.742 E8.50633
G1 X84.661 Y100.958 E8.52504
G1 X85.24 Y100.22 E8.54376
G1 X85.764 Y99.649 E8.55922
G1 X85.975 Y99.435 E8.56522
G1 X86.661 Y98.796 E8.58393
G1 X87.4 Y98.217 E8.60266
G1 X88.185 Y97.704 E8.62138
G1 X88.712 Y97.41 E8.63342
G1 X88.976 Y97.272 E8.63936
G1 X89.825 Y96.873 E8.65808
G1 X90.705 Y96.548 E8.67681
G1 X91.498 Y96.323 E8.69325
G1 X92.415 Y96.126 E8.71197
G1 X93.345 Y96.008 E8.73068
G1 X94.053 Y95.971 E8.74483
G1 X95.24 Y95.95 E8.76852
G1 X139.999 Y95.95 E9.66173
G1 X140.809 Y95.96 E9.6779
G1 X141.745 Y96.013 E9.69661
G1 X143.164 Y96.241 E9.72529
G1 X144.211 Y96.523 E9.74693
G1 X145.092 Y96.843 E9.76563
G1 X145.676 Y97.104 E9.7784
G1 X145.954 Y97.238 E9.78456
G1 X146.781 Y97.681 E9.80328
G1 X147.567 Y98.193 E9.822
G1 X148.307 Y98.769 E9.84071
G1 X148.901 Y99.314 E9.8568
G1 X149.115 Y99.525 E9.8628
G1 X149.754 Y100.211 E9.88151
G1 X150.333 Y100.95 E9.90024
G1 X150.846 Y101.735 E9.91896
G1 X151.14 Y102.262 E9.931
G1 X151.278 Y102.526 E9.93694
G1 X151.677 Y103.375 E9.95566
G1 X152.002 Y104.255 E9.97438
G1 X152.223 Y105.034 E9.99054
G1 X152.421 Y105.95 E10.00925
G1 X152.541 Y106.881 E10.02798
G1 X152.579 Y107.597 E10.04229
G1 X152.6 Y108.766 E10.06562
G1 X152.599 Y126.564 E10.4208
G1 X152.59 Y127.253 E10.43455
G1 X152.538 Y128.189 E10.45326
G1 X152.309 Y129.614 E10.48206
G1 X152.027 Y130.661 E10.5037
G1 X151.707 Y131.542 E10.5224
G1 X151.446 Y132.126 E10.53517
G1 X151.312 Y132.404 E10.54133
G1 X150.869 Y133.231 E10.56005
G1 X150.357 Y134.017 E10.57877
G1 X149.781 Y134.757 E10.59748
G1 X149.236 Y135.351 E10.61357
G1 X149.025 Y135.565 E10.61957
G1 X148.339 Y136.204 E10.63828
G1 X147.6 Y136.783 E10.65701
G1 X146.815 Y137.296 E10.67573
G1 X146.288 Y137.59 E10.68777
G1 X146.024 Y137.728 E10.69371
G1 X145.175 Y138.127 E10.71243
G1 X144.295 Y138.452 E10.73115
G1 X143.502 Y138.677 E10.7476
G1 X142.585 Y138.874 E10.76632
G1 X141.655 Y138.992 E10.78503
G1 X140.947 Y139.029 E10.79918
G1 X139.76 Y139.05 E10.82287
G1 X94.851 Y139.049 E11.71908
G1 X94.191 Y139.04 E11.73225
G1 X93.255 Y138.987 E11.75096
G1 X91.836 Y138.759 E11.77964
G1 X90.789 Y138.477 E11.80128
G1 X89.908 Y138.157 E11.81998
G1 X89.324 Y137.896 E11.83275
G1 X89.046 Y137.762 E11.83891
G1 X88.219 Y137.319 E11.85763
G1 X87.433 Y136.807 E11.87635
G1 X86.693 Y136.231 E11.89506
G1 X86.099 Y135.686 E11.91115
G1 X85.885 Y135.475 E11.91715
G1 X85.246 Y134.789 E11.93586
G1 X84.667 Y134.05 E11.95459
G1 X84.154 Y133.265 E11.9733
G1 X83.86 Y132.738 E11.98535
G1 X83.722 Y132.474 E11.99129
G1 X83.323 Y131.625 E12.01001
G1 X82.998 Y130.745 E12.02873
G1 X82.777 Y129.966 E12.04489
G1 X82.579 Y129.05 E12.06359
G1 X82.459 Y128.119 E12.08233
G1 X82.421 Y127.398 E12.09674
G1 X82.4 Y126.21 E12.12045
G1 X82.401 Y108.365 E12.47656
G0 F6000 X82.801 Y108.371
G1 F1200 X82.81 Y107.74 E12.48916
G1 X82.863 Y106.821 E12.50753
G1 X83.078 Y105.487 E12.53449
G1 X83.354 Y104.459 E12.55573
G1 X83.669 Y103.594 E12.5741
G1 X83.927 Y103.018 E12.5867
G1 X84.061 Y102.742 E12.59282
G1 X84.499 Y101.932 E12.6112
G1 X85.005 Y101.164 E12.62955
G1 X85.577 Y100.441 E12.64795
G1 X86.049 Y99.93 E12.66183
G1 X86.26 Y99.716 E12.66783
G1 X86.934 Y99.089 E12.6862
G1 X87.66 Y98.523 E12.70457
G1 X88.433 Y98.022 E12.72295
G1 X89.162 Y97.626 E12.73951
G1 X89.995 Y97.235 E12.75787
G1 X90.86 Y96.918 E12.77626
G1 X91.599 Y96.711 E12.79157
G1 X92.499 Y96.518 E12.80994
G1 X93.412 Y96.404 E12.8283
G1 X94.061 Y96.371 E12.84127
G1 X95.24 Y96.35 E12.8648
G1 X139.999 Y96.35 E13.75802
G1 X140.804 Y96.36 E13.77408
G1 X141.723 Y96.413 E13.79245
G1 X143.08 Y96.632 E13.81988
G1 X144.106 Y96.91 E13.8411
G1 X144.971 Y97.226 E13.85948
G1 X145.503 Y97.464 E13.87111
G1 X145.781 Y97.598 E13.87726
G1 X146.592 Y98.034 E13.89564
G1 X147.362 Y98.538 E13.914
G1 X148.086 Y99.107 E13.93238
G1 X148.62 Y99.599 E13.94687
G1 X148.834 Y99.81 E13.95287
G1 X149.461 Y100.484 E13.97124
G1 X150.027 Y101.21 E13.98961
G1 X150.528 Y101.983 E14.00799
G1 X150.924 Y102.712 E14.02455
G1 X151.315 Y103.545 E14.04291
G1 X151.632 Y104.41 E14.0613
G1 X151.836 Y105.135 E14.07633
G1 X152.03 Y106.035 E14.0947
G1 X152.145 Y106.948 E14.11306
G1 X152.179 Y107.605 E14.12619
G1 X152.2 Y108.766 E14.14936
G1 X152.199 Y126.558 E14.50442
G1 X152.19 Y127.247 E14.51817
G1 X152.138 Y128.167 E14.53656
G1 X151.918 Y129.53 E14.56412
G1 X151.64 Y130.556 E14.58533
G1 X151.324 Y131.421 E14.60371
G1 X151.086 Y131.953 E14.61534
G1 X150.952 Y132.231 E14.6215
G1 X150.516 Y133.042 E14.63987
G1 X150.012 Y133.812 E14.65824
G1 X149.443 Y134.536 E14.67661
G1 X148.951 Y135.07 E14.6911
G1 X148.74 Y135.284 E14.6971
G1 X148.066 Y135.911 E14.71547
G1 X147.34 Y136.477 E14.73384
G1 X146.567 Y136.978 E14.75222
G1 X145.838 Y137.374 E14.76878
G1 X145.005 Y137.765 E14.78714
G1 X144.14 Y138.082 E14.80553
G1 X143.401 Y138.289 E14.82084
G1 X142.501 Y138.482 E14.83921
G1 X141.588 Y138.596 E14.85757
G1 X140.939 Y138.629 E14.87054
G1 X139.76 Y138.65 E14.89407
G1 X94.856 Y138.649 E15.79018
G1 X94.196 Y138.64 E15.80335
G1 X93.277 Y138.587 E15.82172
G1 X91.92 Y138.368 E15.84915
G1 X90.894 Y138.09 E15.87037
G1 X90.029 Y137.774 E15.88875
G1 X89.497 Y137.536 E15.90038
G1 X89.219 Y137.402 E15.90653
G1 X88.408 Y136.966 E15.92491
G1 X87.638 Y136.462 E15.94327
G1 X86.914 Y135.893 E15.96165
G1 X86.38 Y135.401 E15.97614
G1 X86.166 Y135.19 E15.98214
G1 X85.539 Y134.516 E16.00051
G1 X84.973 Y133.79 E16.01888
G1 X84.472 Y133.017 E16.03726
G1 X84.076 Y132.288 E16.05382
G1 X83.685 Y131.455 E16.07218
G1 X83.368 Y130.59 E16.09057
G1 X83.164 Y129.865 E16.1056
G1 X82.97 Y128.965 E16.12397
G1 X82.855 Y128.052 E16.14233
G1 X82.821 Y127.39 E16.15556
G1 X82.8 Y126.21 E16.17911
G1 X82.801 Y108.371 E16.53511
G0 F6000 X83.201 Y108.377
G1 F1200 X83.21 Y107.746 E16.5477
G1 X83.263 Y106.844 E16.56573
G1 X83.469 Y105.571 E16.59147
G1 X83.741 Y104.563 E16.6123
G1 X84.052 Y103.715 E16.63033
G1 X84.287 Y103.193 E16.64175
G1 X84.421 Y102.917 E16.64788
G1 X84.851 Y102.123 E16.6659
G1 X85.35 Y101.37 E16.68392
G1 X85.913 Y100.664 E16.70194
G1 X86.334 Y100.211 E16.71428
G1 X86.545 Y99.997 E16.72028
G1 X87.207 Y99.382 E16.73831
G1 X87.92 Y98.829 E16.75632
G1 X88.68 Y98.341 E16.77434
G1 X89.347 Y97.981 E16.78947
G1 X90.165 Y97.598 E16.8075
G1 X91.014 Y97.289 E16.82553
G1 X91.699 Y97.098 E16.83972
G1 X92.583 Y96.909 E16.85776
G1 X93.479 Y96.8 E16.87577
G1 X94.069 Y96.771 E16.88756
G1 X95.24 Y96.75 E16.91093
G1 X139.999 Y96.75 E17.80414
G1 X140.798 Y96.76 E17.82009
G1 X141.7 Y96.812 E17.83812
G1 X142.993 Y97.023 E17.86426
G1 X144.002 Y97.296 E17.88512
G1 X144.849 Y97.609 E17.90314
G1 X145.329 Y97.825 E17.91365
G1 X145.607 Y97.959 E17.91981
G1 X146.402 Y98.386 E17.93782
G1 X147.157 Y98.883 E17.95585
G1 X147.864 Y99.444 E17.97387
G1 X148.339 Y99.884 E17.98679
G1 X148.553 Y100.095 E17.99278
G1 X149.168 Y100.757 E18.01082
G1 X149.721 Y101.47 E18.02882
G1 X150.209 Y102.23 E18.04685
G1 X150.569 Y102.897 E18.06197
G1 X150.952 Y103.715 E18.08
G1 X151.261 Y104.564 E18.09803
G1 X151.449 Y105.236 E18.11195
G1 X151.639 Y106.119 E18.12998
G1 X151.749 Y107.015 E18.14799
G1 X151.779 Y107.613 E18.15994
G1 X151.8 Y108.766 E18.18295
G1 X151.799 Y126.553 E18.53791
G1 X151.79 Y127.242 E18.55166
G1 X151.738 Y128.144 E18.56969
G1 X151.527 Y129.443 E18.59596
G1 X151.254 Y130.452 E18.61682
G1 X150.941 Y131.299 E18.63484
G1 X150.725 Y131.779 E18.64534
G1 X150.591 Y132.057 E18.6515
G1 X150.164 Y132.852 E18.66951
G1 X149.667 Y133.607 E18.68755
G1 X149.106 Y134.314 E18.70556
G1 X148.666 Y134.789 E18.71848
G1 X148.455 Y135.003 E18.72448
G1 X147.793 Y135.618 E18.74251
G1 X147.08 Y136.171 E18.76051
G1 X146.32 Y136.659 E18.77854
G1 X145.653 Y137.019 E18.79366
G1 X144.835 Y137.402 E18.81169
G1 X143.986 Y137.711 E18.82972
G1 X143.301 Y137.902 E18.84391
G1 X142.417 Y138.091 E18.86195
G1 X141.521 Y138.2 E18.87996
G1 X140.931 Y138.229 E18.89175
G1 X139.76 Y138.25 E18.91512
G1 X94.862 Y138.249 E19.81111
G1 X94.202 Y138.24 E19.82428
G1 X93.3 Y138.188 E19.84231
G1 X92.007 Y137.977 E19.86846
G1 X90.998 Y137.704 E19.88932
G1 X90.151 Y137.391 E19.90734
G1 X89.671 Y137.175 E19.91784
G1 X89.393 Y137.041 E19.924
G1 X88.598 Y136.614 E19.94201
G1 X87.843 Y136.117 E19.96005
G1 X87.136 Y135.556 E19.97806
G1 X86.661 Y135.116 E19.99098
G1 X86.447 Y134.905 E19.99698
G1 X85.832 Y134.243 E20.01501
G1 X85.279 Y133.53 E20.03302
G1 X84.791 Y132.77 E20.05104
G1 X84.431 Y132.103 E20.06617
G1 X84.048 Y131.285 E20.08419
G1 X83.739 Y130.436 E20.10222
G1 X83.551 Y129.764 E20.11615
G1 X83.361 Y128.881 E20.13417
G1 X83.251 Y127.985 E20.15219
G1 X83.221 Y127.382 E20.16423
G1 X83.2 Y126.21 E20.18763
G1 X83.201 Y108.377 E20.5435
G1 F2700 E15.5435
;MESH:eNCAJE.STL
G0 F6000 X92.735 Y108.377
G0 X93.82 Y108.377
G0 X95.2 Y126.249
;TYPE:WALL-INNER
G1 F2700 E20.5435
G1 F1200 X139.8 Y126.249 E21.43354
G1 X139.8 Y120.72 E21.54388
G1 X139.441 Y121.064 E21.5538
G1 X139.04 Y121.387 E21.56408
G1 X138.791 Y121.556 E21.57008
G1 X138.351 Y121.803 E21.58015
G1 X138.07 Y121.931 E21.58632
G1 X137.595 Y122.099 E21.59637
G1 X137.342 Y122.167 E21.6016
G1 X136.793 Y122.263 E21.61272
